;FLAVOR:Marlin
;TIME:2025
;Filament used: 2.27471m
;Layer height: 1.2
;MINX:34.635
;MINY:37.893
;MINZ:1.2
;MAXX:53.235
;MAXY:56.493
;MAXZ:24
;TARGET_MACHINE.NAME:Unknown
;Generated with Cura_SteamEngine 5.5.0
M104 S240
M105
M109 S240
M82 ;absolute extrusion mode
G28 ;Home
G1 Z15.0 F6000 ;Move the platform down 15mm
;Prime the extruder
G92 E0
G1 F200 E3
G92 E0
G92 E0
G92 E0
;LAYER_COUNT:20
;LAYER:0
M107
;MESH:Box.STL
G0 F3600 X53.235 Y56.493 Z1.2
;TYPE:SKIN
G1 F60 X34.635 Y56.493 E20.99258
G1 X34.635 Y37.893 E41.98516
G1 X53.235 Y37.893 E62.97774
G1 X53.235 Y56.493 E83.97032
G0 F3600 X49.865 Y53.123
G0 X50.234 Y41.749
G1 F60 X49.378 Y40.893 E85.33661
G0 F3600 X49.378 Y41.293
G0 X40.892 Y40.892
G1 F60 X50.234 Y50.234 E100.24764
G0 F3600 X49.835 Y50.234
G0 X45.006 Y53.491
G1 F60 X37.635 Y46.12 E112.01271
;MESH:NONMESH
G0 F600 X37.635 Y46.12 Z2.4
G0 F3600 X38.035 Y46.12
G0 X49.865 Y53.123
G0 X53.235 Y56.493
;TIME_ELAPSED:101.660974
;LAYER:1
M106 S255
;TYPE:SKIN
;MESH:Box.STL
G1 F60 X34.635 Y56.493 E133.00529
G1 X34.635 Y37.893 E153.99787
G1 X53.235 Y37.893 E174.99045
G1 X53.235 Y56.493 E195.98303
G0 F5400 X49.865 Y53.123
G0 X47.085 Y50.343
G1 F57.1 X40.785 Y50.343 E203.44894
G1 X40.785 Y44.043 E210.91485
G1 X47.085 Y44.043 E218.38076
G1 X47.085 Y50.343 E225.84667
;MESH:NONMESH
G0 F600 X47.085 Y50.343 Z3.6
G0 F5400 X53.235 Y56.493
;TIME_ELAPSED:202.944725
;LAYER:2
;TYPE:SKIN
;MESH:Box.STL
G1 F60 X34.635 Y56.493 E246.83925
G1 X34.635 Y37.893 E267.83183
G1 X53.235 Y37.893 E288.82442
G1 X53.235 Y56.493 E309.817
G0 F7200 X49.865 Y53.123
G0 X47.085 Y50.343
G1 F57.1 X40.785 Y50.343 E317.28291
G1 X40.785 Y44.043 E324.74882
G1 X47.085 Y44.043 E332.21473
G1 X47.085 Y50.343 E339.68064
;MESH:NONMESH
G0 F600 X47.085 Y50.343 Z4.8
G0 F7200 X53.235 Y56.493
;TIME_ELAPSED:304.187928
;LAYER:3
;TYPE:SKIN
;MESH:Box.STL
G1 F60 X34.635 Y56.493 E360.67322
G1 X34.635 Y37.893 E381.6658
G1 X53.235 Y37.893 E402.65838
G1 X53.235 Y56.493 E423.65096
G0 F7200 X49.865 Y53.123
G0 X47.085 Y50.343
G1 F57.1 X40.785 Y50.343 E431.11687
G1 X40.785 Y44.043 E438.58278
G1 X47.085 Y44.043 E446.04869
G1 X47.085 Y50.343 E453.5146
;MESH:NONMESH
G0 F600 X47.085 Y50.343 Z6
G0 F7200 X53.235 Y56.493
;TIME_ELAPSED:405.431130
;LAYER:4
;TYPE:SKIN
;MESH:Box.STL
G1 F60 X34.635 Y56.493 E474.50718
G1 X34.635 Y37.893 E495.49976
G1 X53.235 Y37.893 E516.49234
G1 X53.235 Y56.493 E537.48492
G0 F7200 X49.865 Y53.123
G0 X47.085 Y50.343
G1 F57.1 X40.785 Y50.343 E544.95083
G1 X40.785 Y44.043 E552.41674
G1 X47.085 Y44.043 E559.88265
G1 X47.085 Y50.343 E567.34856
;MESH:NONMESH
G0 F600 X47.085 Y50.343 Z7.2
G0 F7200 X53.235 Y56.493
;TIME_ELAPSED:506.674333
;LAYER:5
;TYPE:SKIN
;MESH:Box.STL
G1 F60 X34.635 Y56.493 E588.34115
G1 X34.635 Y37.893 E609.33373
G1 X53.235 Y37.893 E630.32631
G1 X53.235 Y56.493 E651.31889
G0 F7200 X49.865 Y53.123
G0 X47.085 Y50.343
G1 F57.1 X40.785 Y50.343 E658.7848
G1 X40.785 Y44.043 E666.25071
G1 X47.085 Y44.043 E673.71662
G1 X47.085 Y50.343 E681.18253
;MESH:NONMESH
G0 F600 X47.085 Y50.343 Z8.4
G0 F7200 X53.235 Y56.493
;TIME_ELAPSED:607.917535
;LAYER:6
;TYPE:SKIN
;MESH:Box.STL
G1 F60 X34.635 Y56.493 E702.17511
G1 X34.635 Y37.893 E723.16769
G1 X53.235 Y37.893 E744.16027
G1 X53.235 Y56.493 E765.15285
G0 F7200 X49.865 Y53.123
G0 X47.085 Y50.343
G1 F57.1 X40.785 Y50.343 E772.61876
G1 X40.785 Y44.043 E780.08467
G1 X47.085 Y44.043 E787.55058
G1 X47.085 Y50.343 E795.01649
;MESH:NONMESH
G0 F600 X47.085 Y50.343 Z9.6
G0 F7200 X53.235 Y56.493
;TIME_ELAPSED:709.160737
;LAYER:7
;TYPE:SKIN
;MESH:Box.STL
G1 F60 X34.635 Y56.493 E816.00907
G1 X34.635 Y37.893 E837.00165
G1 X53.235 Y37.893 E857.99423
G1 X53.235 Y56.493 E878.98682
G0 F7200 X49.865 Y53.123
G0 X47.085 Y50.343
G1 F57.1 X40.785 Y50.343 E886.45273
G1 X40.785 Y44.043 E893.91864
G1 X47.085 Y44.043 E901.38455
G1 X47.085 Y50.343 E908.85046
;MESH:NONMESH
G0 F600 X47.085 Y50.343 Z10.8
G0 F7200 X53.235 Y56.493
;TIME_ELAPSED:810.403940
;LAYER:8
;TYPE:SKIN
;MESH:Box.STL
G1 F60 X34.635 Y56.493 E929.84304
G1 X34.635 Y37.893 E950.83562
G1 X53.235 Y37.893 E971.8282
G1 X53.235 Y56.493 E992.82078
G0 F7200 X49.865 Y53.123
G0 X47.085 Y50.343
G1 F57.1 X40.785 Y50.343 E1000.28669
G1 X40.785 Y44.043 E1007.7526
G1 X47.085 Y44.043 E1015.21851
G1 X47.085 Y50.343 E1022.68442
;MESH:NONMESH
G0 F600 X47.085 Y50.343 Z12
G0 F7200 X53.235 Y56.493
;TIME_ELAPSED:911.647142
;LAYER:9
;TYPE:SKIN
;MESH:Box.STL
G1 F60 X34.635 Y56.493 E1043.677
G1 X34.635 Y37.893 E1064.66958
G1 X53.235 Y37.893 E1085.66216
G1 X53.235 Y56.493 E1106.65474
G0 F7200 X49.865 Y53.123
G0 X47.085 Y50.343
G1 F57.1 X40.785 Y50.343 E1114.12065
G1 X40.785 Y44.043 E1121.58656
G1 X47.085 Y44.043 E1129.05247
G1 X47.085 Y50.343 E1136.51838
;MESH:NONMESH
G0 F600 X47.085 Y50.343 Z13.2
G0 F7200 X53.235 Y56.493
;TIME_ELAPSED:1012.890345
;LAYER:10
;TYPE:SKIN
;MESH:Box.STL
G1 F60 X34.635 Y56.493 E1157.51096
G1 X34.635 Y37.893 E1178.50355
G1 X53.235 Y37.893 E1199.49613
G1 X53.235 Y56.493 E1220.48871
G0 F7200 X49.865 Y53.123
G0 X47.085 Y50.343
G1 F57.1 X40.785 Y50.343 E1227.95462
G1 X40.785 Y44.043 E1235.42053
G1 X47.085 Y44.043 E1242.88644
G1 X47.085 Y50.343 E1250.35235
;MESH:NONMESH
G0 F600 X47.085 Y50.343 Z14.4
G0 F7200 X53.235 Y56.493
;TIME_ELAPSED:1114.133547
;LAYER:11
;TYPE:SKIN
;MESH:Box.STL
G1 F60 X34.635 Y56.493 E1271.34493
G1 X34.635 Y37.893 E1292.33751
G1 X53.235 Y37.893 E1313.33009
G1 X53.235 Y56.493 E1334.32267
G0 F7200 X49.865 Y53.123
G0 X47.085 Y50.343
G1 F57.1 X40.785 Y50.343 E1341.78858
G1 X40.785 Y44.043 E1349.25449
G1 X47.085 Y44.043 E1356.7204
G1 X47.085 Y50.343 E1364.18631
;MESH:NONMESH
G0 F600 X47.085 Y50.343 Z15.6
G0 F7200 X53.235 Y56.493
;TIME_ELAPSED:1215.376750
;LAYER:12
;TYPE:SKIN
;MESH:Box.STL
G1 F60 X34.635 Y56.493 E1385.17889
G1 X34.635 Y37.893 E1406.17147
G1 X53.235 Y37.893 E1427.16405
G1 X53.235 Y56.493 E1448.15664
G0 F7200 X49.865 Y53.123
G0 X47.085 Y50.343
G1 F57.1 X40.785 Y50.343 E1455.62255
G1 X40.785 Y44.043 E1463.08846
G1 X47.085 Y44.043 E1470.55437
G1 X47.085 Y50.343 E1478.02027
;MESH:NONMESH
G0 F600 X47.085 Y50.343 Z16.8
G0 F7200 X53.235 Y56.493
;TIME_ELAPSED:1316.619952
;LAYER:13
;TYPE:SKIN
;MESH:Box.STL
G1 F60 X34.635 Y56.493 E1499.01286
G1 X34.635 Y37.893 E1520.00544
G1 X53.235 Y37.893 E1540.99802
G1 X53.235 Y56.493 E1561.9906
G0 F7200 X49.865 Y53.123
G0 X47.085 Y50.343
G1 F57.1 X40.785 Y50.343 E1569.45651
G92 E0
G1 X40.785 Y44.043 E7.46591
G1 X47.085 Y44.043 E14.93182
G1 X47.085 Y50.343 E22.39773
;MESH:NONMESH
G0 F600 X47.085 Y50.343 Z18
G0 F7200 X53.235 Y56.493
;TIME_ELAPSED:1417.863474
;LAYER:14
;TYPE:SKIN
;MESH:Box.STL
G1 F60 X34.635 Y56.493 E43.39031
G1 X34.635 Y37.893 E64.38289
G1 X53.235 Y37.893 E85.37547
G1 X53.235 Y56.493 E106.36805
G0 F7200 X49.865 Y53.123
G0 X47.085 Y50.343
G1 F57.1 X40.785 Y50.343 E113.83396
G1 X40.785 Y44.043 E121.29987
G1 X47.085 Y44.043 E128.76578
G1 X47.085 Y50.343 E136.23169
;MESH:NONMESH
G0 F600 X47.085 Y50.343 Z19.2
G0 F7200 X53.235 Y56.493
;TIME_ELAPSED:1519.106676
;LAYER:15
;TYPE:SKIN
;MESH:Box.STL
G1 F60 X34.635 Y56.493 E157.22427
G1 X34.635 Y37.893 E178.21686
G1 X53.235 Y37.893 E199.20944
G1 X53.235 Y56.493 E220.20202
G0 F7200 X49.865 Y53.123
G0 X47.085 Y50.343
G1 F57.1 X40.785 Y50.343 E227.66793
G1 X40.785 Y44.043 E235.13384
G1 X47.085 Y44.043 E242.59975
G1 X47.085 Y50.343 E250.06566
;MESH:NONMESH
G0 F600 X47.085 Y50.343 Z20.4
G0 F7200 X53.235 Y56.493
;TIME_ELAPSED:1620.349879
;LAYER:16
;TYPE:SKIN
;MESH:Box.STL
G1 F60 X34.635 Y56.493 E271.05824
G1 X34.635 Y37.893 E292.05082
G1 X53.235 Y37.893 E313.0434
G1 X53.235 Y56.493 E334.03598
G0 F7200 X49.865 Y53.123
G0 X47.085 Y50.343
G1 F57.1 X40.785 Y50.343 E341.50189
G1 X40.785 Y44.043 E348.9678
G1 X47.085 Y44.043 E356.43371
G1 X47.085 Y50.343 E363.89962
;MESH:NONMESH
G0 F600 X47.085 Y50.343 Z21.6
G0 F7200 X53.235 Y56.493
;TIME_ELAPSED:1721.593081
;LAYER:17
;TYPE:SKIN
;MESH:Box.STL
G1 F60 X34.635 Y56.493 E384.8922
G1 X34.635 Y37.893 E405.88478
G1 X53.235 Y37.893 E426.87736
G1 X53.235 Y56.493 E447.86995
G0 F7200 X49.865 Y53.123
G0 X47.085 Y50.343
G1 F57.1 X40.785 Y50.343 E455.33586
G1 X40.785 Y44.043 E462.80177
G1 X47.085 Y44.043 E470.26768
G1 X47.085 Y50.343 E477.73359
;MESH:NONMESH
G0 F600 X47.085 Y50.343 Z22.8
G0 F7200 X53.235 Y56.493
;TIME_ELAPSED:1822.836284
;LAYER:18
;TYPE:SKIN
;MESH:Box.STL
G1 F60 X34.635 Y56.493 E498.72617
G1 X34.635 Y37.893 E519.71875
G1 X53.235 Y37.893 E540.71133
G1 X53.235 Y56.493 E561.70391
G0 F7200 X49.865 Y53.123
G0 X47.085 Y50.343
G1 F57.1 X40.785 Y50.343 E569.16982
G1 X40.785 Y44.043 E576.63573
G1 X47.085 Y44.043 E584.10164
G1 X47.085 Y50.343 E591.56755
;MESH:NONMESH
G0 F600 X47.085 Y50.343 Z24
G0 F7200 X53.235 Y56.493
;TIME_ELAPSED:1924.079486
;LAYER:19
;TYPE:SKIN
;MESH:Box.STL
G1 F60 X34.635 Y56.493 E612.56013
G1 X34.635 Y37.893 E633.55271
G1 X53.235 Y37.893 E654.54529
G1 X53.235 Y56.493 E675.53787
G0 F7200 X49.865 Y53.123
G0 X50.234 Y51.589
G1 F60 X48.33 Y53.492 E678.5761
G0 F7200 X48.33 Y53.093
G0 X39.845 Y53.492
G1 F60 X50.234 Y43.103 E695.15828
G0 F7200 X49.835 Y43.103
G0 X43.96 Y40.892
G1 F60 X37.635 Y47.217 E705.2538
;TIME_ELAPSED:2025.108770
M107
M104 S0
M140 S0
;Retract the filament
G92 E1
G1 E-1 F300
G28 X0 Y0
M84
M82 ;absolute extrusion mode
M104 S0
;End of Gcode
;SETTING_3 {"global_quality": "[general]\\nversion = 4\\nname = Fine #2\\ndefini
;SETTING_3 tion = custom\\n\\n[metadata]\\ntype = quality_changes\\nquality_type
;SETTING_3  = normal\\nsetting_version = 22\\n\\n[values]\\nadhesion_type = none
;SETTING_3 \\nlayer_height = 1.2\\nlayer_height_0 = 1.2\\n\\n", "extruder_qualit
;SETTING_3 y": ["[general]\\nversion = 4\\nname = Fine #2\\ndefinition = custom\
;SETTING_3 \n\\n[metadata]\\ntype = quality_changes\\nquality_type = normal\\nin
;SETTING_3 tent_category = default\\nposition = 0\\nsetting_version = 22\\n\\n[v
;SETTING_3 alues]\\ninfill_sparse_density = 100.0\\nretraction_enable = False\\n
;SETTING_3 speed_print = 2\\ntop_bottom_thickness = 1\\nwall_line_count = 0\\nwa
;SETTING_3 ll_thickness = =wall_line_width_0 if magic_spiralize else 0.8\\nxy_of
;SETTING_3 fset = 0\\n\\n"]}
