;FLAVOR:Marlin
;TIME:20722
;Filament used: 53.3647m
;Layer height: 3
;MINX:102.577
;MINY:51.55
;MINZ:0.3
;MAXX:217.424
;MAXY:148.45
;MAXZ:30.3
;TARGET_MACHINE.NAME:Unknown
;Generated with Cura_SteamEngine 5.5.0
M104 S270
M105
M109 S270
M82 ;absolute extrusion mode
G28 ;Home
G1 Z15.0 F6000 ;Move the platform down 15mm
;Prime the extruder
G92 E0
G1 F200 E3
G92 E0
G92 E0
G92 E0
;LAYER_COUNT:11
;LAYER:0
M107
;MESH:Part1.STL
G0 F3600 X217.424 Y148.45 Z0.3
;TYPE:WALL-OUTER
G1 F60 X102.577 Y148.449 E32.40504
G1 X102.577 Y51.551 E59.74562
G1 X217.424 Y51.55 E92.15066
G1 X217.424 Y148.45 E119.4918
G0 F3600 X217.424 Y145.45
G0 X208.354 Y139.38
G0 X162.474 Y132.847
G0 X162.085 Y123.75
G1 F60 X165.981 Y123.09 E120.60675
G1 X169.805 Y121.743 E121.75071
G1 X173.364 Y119.758 E122.90054
G1 X176.501 Y117.221 E124.03891
G1 X179.178 Y114.183 E125.18142
G1 X181.296 Y110.742 E126.3215
G1 X182.805 Y106.984 E127.46414
G1 X183.657 Y103.033 E128.60458
G1 X183.829 Y98.985 E129.74779
G1 X183.314 Y94.97 E130.88993
G1 X182.136 Y91.114 E132.02757
G1 X180.318 Y87.505 E133.16779
G1 X177.897 Y84.233 E134.31625
G1 X174.981 Y81.442 E135.45516
G1 X171.629 Y79.176 E136.5968
G1 X167.913 Y77.5 E137.74701
G1 X164.001 Y76.487 E138.88722
G1 X159.967 Y76.149 E140.02943
G1 X155.996 Y76.487 E141.15393
G1 X152.025 Y77.522 E142.31182
G1 X148.381 Y79.169 E143.44015
G1 X145.002 Y81.453 E144.59093
G1 X142.114 Y84.226 E145.72063
G1 X139.689 Y87.495 E146.86908
G1 X137.87 Y91.102 E148.00892
G1 X136.681 Y94.986 E149.15502
G1 X136.169 Y99.002 E150.29734
G1 X136.342 Y103.025 E151.43352
G1 X137.19 Y106.971 E152.57233
G1 X138.699 Y110.733 E153.71602
G1 X140.822 Y114.183 E154.85901
G1 X143.499 Y117.222 E156.00173
G1 X146.643 Y119.759 E157.14163
G1 X150.18 Y121.737 E158.28508
G1 X153.959 Y123.074 E159.41613
G1 X157.863 Y123.748 E160.53397
G1 X160.009 Y123.846 E161.14011
G1 X162.085 Y123.75 E161.7265
G0 F3600 X160.009 Y123.846
G0 X159.088 Y123.804
G0 X158.703 Y132.896
G0 X208.354 Y139.38
G0 X211.724 Y142.75
;TYPE:SKIN
G1 F60 X108.277 Y142.749 E190.91493
G1 X108.278 Y57.252 E215.03862
G1 X211.724 Y57.25 E244.22678
G1 X211.724 Y142.75 E268.35131
G0 F3600 X208.354 Y139.38
G0 X159.866 Y132.946
G0 X160.01 Y129.543
G1 F60 X162.723 Y129.429 E269.11749
G1 X167.066 Y128.687 E270.36066
G1 X167.825 Y128.49 E270.58191
G1 X171.482 Y127.197 E271.67636
G1 X172.344 Y126.845 E271.93908
G1 X176.245 Y124.671 E273.19916
G1 X176.865 Y124.252 E273.4103
G1 X180.162 Y121.587 E274.60648
G1 X180.715 Y121.054 E274.82319
G1 X183.497 Y117.898 E276.01027
G1 X184 Y117.223 E276.24779
G1 X186.175 Y113.681 E277.42058
G1 X186.561 Y112.924 E277.66034
G1 X188.128 Y109.012 E278.8494
G1 X188.35 Y108.3 E279.05984
G1 X189.242 Y104.167 E280.25285
G1 X189.343 Y103.387 E280.47477
G1 X189.524 Y99.111 E281.68236
G1 X189.494 Y98.379 E281.88907
G1 X188.946 Y94.112 E283.10293
G1 X188.795 Y93.416 E283.30388
G1 X187.531 Y89.277 E284.52498
G1 X187.243 Y88.584 E284.73673
G1 X185.368 Y84.871 E285.91038
G1 X184.922 Y84.149 E286.14984
G1 X182.451 Y80.807 E287.32257
G1 X181.92 Y80.197 E287.55076
G1 X178.842 Y77.25 E288.75313
G1 X178.276 Y76.795 E288.95804
G1 X174.724 Y74.389 E290.16854
G1 X173.973 Y73.982 E290.40956
G1 X170.22 Y72.279 E291.57243
G1 X169.455 Y72.013 E291.80095
G1 X165.383 Y70.951 E292.98833
G1 X164.591 Y70.816 E293.21503
G1 X160.408 Y70.46 E294.39956
G1 X159.592 Y70.46 E294.6298
G1 X155.41 Y70.816 E295.81406
G1 X154.62 Y70.95 E296.04015
G1 X150.532 Y72.014 E297.23204
G1 X149.776 Y72.283 E297.45845
G1 X146.267 Y73.869 E298.54498
G1 X145.377 Y74.32 E298.8265
G1 X141.724 Y76.791 E300.07089
G1 X141.157 Y77.253 E300.27726
G1 X138.033 Y80.243 E301.49739
G1 X137.469 Y80.912 E301.74429
G1 X135.073 Y84.154 E302.88175
G1 X134.636 Y84.857 E303.11531
G1 X132.755 Y88.595 E304.29603
G1 X132.444 Y89.366 E304.5306
G1 X131.201 Y93.426 E305.72865
G1 X131.04 Y94.169 E305.94316
G1 X130.503 Y98.389 E307.14347
G1 X130.48 Y99.237 E307.38283
G1 X130.657 Y103.388 E308.55513
G1 X130.755 Y104.14 E308.76911
G1 X131.562 Y107.919 E309.85943
G1 X131.823 Y108.912 E310.14913
G1 X133.477 Y113.016 E311.39761
G1 X133.886 Y113.788 E311.64412
G1 X136 Y117.218 E312.78097
G1 X136.503 Y117.898 E313.01963
G1 X139.284 Y121.054 E314.20651
G1 X139.838 Y121.587 E314.42343
G1 X143.157 Y124.271 E315.62781
G1 X143.865 Y124.732 E315.86619
G1 X147.658 Y126.846 E317.09141
G1 X148.383 Y127.146 E317.3128
G1 X152.156 Y128.482 E318.44215
G1 X152.921 Y128.685 E318.66548
G1 X157.269 Y129.428 E319.91008
G1 X160.01 Y129.543 E320.68416
G0 F3600 X159.866 Y132.946
G0 X114.292 Y139.35
G0 X114.292 Y139.748
G1 F60 X111.277 Y136.733 E321.88724
G0 F3600 X111.676 Y136.733
G0 X111.277 Y128.247
G1 F60 X122.777 Y139.748 E326.47631
G0 F3600 X122.777 Y139.35
G0 X131.263 Y139.748
G1 F60 X111.277 Y119.762 E334.45137
G0 F3600 X111.676 Y119.762
G0 X111.277 Y111.277
G1 F60 X139.748 Y139.748 E345.81221
G0 F3600 X139.748 Y139.35
G0 X148.234 Y139.749
G1 F60 X111.277 Y102.792 E360.55924
G0 F3600 X111.676 Y102.792
G0 X111.277 Y94.306
G1 F60 X130.407 Y113.436 E368.19273
G0 F3600 X130.038 Y113.584
G0 X127.603 Y102.147
G1 F60 X111.277 Y85.821 E374.70733
G0 F3600 X111.676 Y85.821
G0 X111.277 Y77.336
G1 F60 X128.029 Y94.088 E381.39192
G0 F3600 X127.629 Y94.037
G0 X129.952 Y87.526
G1 F60 X111.277 Y68.85 E388.84404
G0 F3600 X111.676 Y68.85
G0 X111.277 Y60.365
G1 F60 X132.926 Y82.015 E397.48289
G0 F3600 X132.602 Y81.775
G0 X136.728 Y77.332
G1 F60 X119.649 Y60.252 E404.29816
G0 F3600 X119.649 Y60.65
G0 X128.134 Y60.252
G1 F60 X141.32 Y73.437 E409.5596
G0 F3600 X141.098 Y73.107
G0 X146.732 Y70.364
G1 F60 X136.62 Y60.252 E413.59461
G0 F3600 X136.62 Y60.65
G0 X145.104 Y60.251
G1 F60 X153.098 Y68.245 E416.78447
G0 F3600 X152.999 Y67.861
G0 X160.822 Y67.484
G1 F60 X153.589 Y60.251 E419.67067
G0 F3600 X153.589 Y60.65
G0 X162.075 Y60.251
G1 F60 X171.323 Y69.5 E423.36112
G0 F3600 X171.492 Y69.127
G0 X170.56 Y60.251
G1 F60 X208.723 Y98.414 E438.58939
G0 F3600 X208.324 Y98.414
G0 X208.723 Y106.899
G1 F60 X190.48 Y88.657 E445.86873
G0 F3600 X190.864 Y88.54
G0 X192.519 Y99.181
G1 F60 X208.723 Y115.384 E452.33445
G0 F3600 X208.324 Y115.384
G0 X208.723 Y123.87
G1 F60 X191.722 Y106.869 E459.11839
G0 F3600 X192.121 Y106.956
G0 X189.645 Y113.277
G1 F60 X208.723 Y132.355 E466.73113
G0 F3600 X208.324 Y132.355
G0 X207.632 Y139.749
G1 F60 X186.596 Y118.714 E475.12497
G0 F3600 X186.942 Y118.928
G0 X182.7 Y123.303
G1 F60 X199.146 Y139.749 E481.68745
G0 F3600 X199.146 Y139.35
G0 X190.661 Y139.749
G1 F60 X178.009 Y127.098 E486.73581
G0 F3600 X178.216 Y127.472
G0 X172.46 Y130.034
G1 F60 X182.176 Y139.749 E490.6126
G0 F3600 X182.176 Y139.35
G0 X173.69 Y139.749
G1 F60 X165.875 Y131.934 E493.73104
G0 F3600 X165.941 Y132.327
G0 X165.204 Y139.749
G1 F60 X157.919 Y132.463 E496.63819
G0 F3600 X157.902 Y132.863
G0 X156.719 Y139.749
G1 F60 X146.654 Y129.684 E500.65445
G1 X145.594 Y128.624
G0 F3600 X145.178 Y129.368
G0 X156.955 Y132.763
G0 X173.561 Y130.003
G0 X186.472 Y119.577
G0 X208.324 Y89.929
G0 X208.723 Y89.929
G1 F60 X179.045 Y60.251 E512.49693
G0 F3600 X179.045 Y60.65
G0 X187.53 Y60.251
G1 F60 X208.723 Y81.443 E520.95341
G0 F3600 X208.324 Y81.443
G0 X208.723 Y72.958
G1 F60 X196.015 Y60.251 E526.02412
G0 F3600 X196.015 Y60.65
G0 X204.5 Y60.251
G1 F60 X208.723 Y64.473 E527.70903
G0 F3600 X202.424 Y66.55
;MESH:NONMESH
G0 F600 X202.424 Y66.55 Z3.3
G0 F3600 X214.354 Y145.38
G0 X217.424 Y148.45
;TIME_ELAPSED:1888.591404
;LAYER:1
M106 S255
;TYPE:WALL-OUTER
;MESH:Part1.STL
G1 F60 X102.577 Y148.449 E851.75943
G1 X102.577 Y51.551 E1125.16522
G1 X217.424 Y51.55 E1449.21562
G1 X217.424 Y148.45 E1722.62706
G0 F5400 X217.424 Y145.45
G0 X208.354 Y139.38
G0 X159.614 Y132.935
G0 X160 Y123.846
G92 E0
G1 F60 X162.085 Y123.75 E5.88923
G1 X165.981 Y123.09 E17.03874
G1 X169.805 Y121.743 E28.4783
G1 X173.364 Y119.758 E39.97663
G1 X176.501 Y117.221 E51.36029
G1 X179.178 Y114.183 E62.78536
G1 X181.296 Y110.742 E74.18623
G1 X182.805 Y106.984 E85.61265
G1 X183.657 Y103.033 E97.01698
G1 X183.829 Y98.985 E108.44906
G1 X183.314 Y94.97 E119.87053
G1 X182.136 Y91.114 E131.24695
G1 X180.318 Y87.505 E142.64908
G1 X177.897 Y84.233 E154.13373
G1 X174.981 Y81.442 E165.52284
G1 X171.629 Y79.176 E176.93916
G1 X167.913 Y77.5 E188.44127
G1 X164.001 Y76.487 E199.84337
G1 X159.967 Y76.149 E211.26552
G1 X155.996 Y76.487 E222.51054
G1 X152.025 Y77.522 E234.08937
G1 X148.381 Y79.169 E245.37266
G1 X145.002 Y81.453 E256.88053
G1 X142.114 Y84.226 E268.17747
G1 X139.689 Y87.495 E279.66203
G1 X137.87 Y91.102 E291.0604
G1 X136.681 Y94.986 E302.52144
G1 X136.169 Y99.002 E313.94463
G1 X136.342 Y103.025 E325.30636
G1 X137.19 Y106.971 E336.69452
G1 X138.699 Y110.733 E348.13141
G1 X140.822 Y114.183 E359.56131
G1 X143.499 Y117.222 E370.98849
G1 X146.643 Y119.759 E382.38752
G1 X150.18 Y121.737 E393.82202
G1 X153.959 Y123.074 E405.13246
G1 X157.863 Y123.748 E416.31087
G1 X160 Y123.846 E422.34694
G0 F5400 X157.863 Y123.748
G0 X157.015 Y123.602
G0 X155.476 Y132.57
G0 X208.354 Y139.38
G0 X211.724 Y142.75
;TYPE:SKIN
G1 F60 X108.277 Y142.749 E714.23128
G1 X108.278 Y57.252 E955.4682
G1 X211.724 Y57.25 E1247.34973
G1 X211.724 Y142.75 E1488.59512
G0 F5400 X208.354 Y139.38
G0 X159.855 Y132.946
G0 X160 Y129.543
G1 F60 X162.732 Y129.428 E1496.31051
G1 X167.066 Y128.687 E1508.7167
G1 X167.825 Y128.49 E1510.92924
G1 X171.482 Y127.197 E1521.87375
G1 X172.344 Y126.845 E1524.50093
G1 X176.245 Y124.671 E1537.10178
G1 X176.865 Y124.252 E1539.21318
G1 X180.162 Y121.587 E1551.17498
G1 X180.715 Y121.054 E1553.34209
G1 X183.497 Y117.898 E1565.21283
G1 X184 Y117.223 E1567.58805
G92 E0
G1 X186.175 Y113.681 E11.72788
G1 X186.561 Y112.924 E14.12547
G1 X188.128 Y109.012 E26.0161
G1 X188.35 Y108.3 E28.12046
G1 X189.242 Y104.167 E40.05057
G1 X189.343 Y103.387 E42.26978
G1 X189.524 Y99.111 E54.34567
G1 X189.494 Y98.379 E56.41281
G1 X188.946 Y94.112 E68.55139
G1 X188.795 Y93.416 E70.56089
G1 X187.531 Y89.277 E82.77187
G1 X187.243 Y88.584 E84.88936
G1 X185.368 Y84.871 E96.62593
G1 X184.922 Y84.149 E99.02045
G1 X182.451 Y80.807 E110.74779
G1 X181.914 Y80.195 E113.04511
G1 X178.843 Y77.251 E125.04868
G1 X178.276 Y76.795 E127.10171
G1 X174.724 Y74.389 E139.20677
G1 X173.973 Y73.982 E141.61696
G1 X170.22 Y72.279 E153.24558
G1 X169.455 Y72.013 E155.53086
G1 X165.383 Y70.951 E167.40467
G1 X164.591 Y70.816 E169.6716
G1 X160.408 Y70.46 E181.51695
G1 X159.592 Y70.46 E183.81936
G1 X155.41 Y70.816 E195.6619
G1 X154.62 Y70.95 E197.92279
G1 X150.532 Y72.014 E209.84172
G1 X149.776 Y72.283 E212.10584
G1 X146.267 Y73.869 E222.97113
G1 X145.377 Y74.32 E225.78636
G1 X141.724 Y76.791 E238.23023
G1 X141.157 Y77.253 E240.29391
G1 X138.033 Y80.243 E252.49525
G1 X137.469 Y80.912 E254.96419
G1 X135.073 Y84.154 E266.33884
G1 X134.636 Y84.857 E268.67442
G1 X132.755 Y88.595 E280.48159
G1 X132.444 Y89.366 E282.82735
G1 X131.201 Y93.426 E294.80784
G1 X131.04 Y94.169 E296.95293
G1 X130.503 Y98.389 E308.95603
G1 X130.48 Y99.237 E311.34961
G1 X130.657 Y103.388 E323.07265
G1 X130.755 Y104.14 E325.21242
G1 X131.562 Y107.919 E336.1156
G1 X131.823 Y108.912 E339.0126
G1 X133.477 Y113.016 E351.49744
G1 X133.886 Y113.788 E353.96251
G1 X136 Y117.218 E365.33104
G1 X136.503 Y117.898 E367.71759
G1 X139.284 Y121.054 E379.58647
G1 X139.838 Y121.587 E381.75561
G1 X143.157 Y124.271 E393.79938
G1 X143.865 Y124.732 E396.18322
G1 X147.658 Y126.846 E408.43547
G1 X148.383 Y127.146 E410.64934
G1 X152.156 Y128.482 E421.94287
G1 X152.921 Y128.685 E424.17609
G1 X157.272 Y129.428 E436.63051
G1 X160 Y129.543 E444.33463
G0 F5400 X159.855 Y132.946
G0 X208.324 Y130.688
G0 X208.723 Y130.688
G1 F60 X199.66 Y139.75 E480.49692
G0 F5400 X199.66 Y139.35
G0 X191.175 Y139.75
G1 F60 X208.723 Y122.202 E550.51908
G0 F5400 X208.324 Y122.202
G0 X208.723 Y113.717
G1 F60 X182.69 Y139.75 E654.39912
G0 F5400 X182.69 Y139.35
G0 X174.204 Y139.75
G1 F60 X208.723 Y105.232 E792.13904
G0 F5400 X208.324 Y105.232
G0 X208.723 Y96.747
G1 F60 X186.239 Y119.23 E881.85544
G0 F5400 X186.614 Y119.461
G0 X179.453 Y126.017
G1 F60 X172.139 Y133.33 E911.03865
G1 X172.138 Y133.331
G1 X165.719 Y139.75 E936.65253
G0 F5400 X165.719 Y139.35
G0 X164.881 Y132.103
G1 F60 X157.234 Y139.75 E967.16652
G0 F5400 X157.234 Y139.35
G0 X156.209 Y132.289
G1 F60 X148.749 Y139.749 E996.93432
G0 F5400 X148.749 Y139.35
G0 X148.273 Y131.741
G1 F60 X140.265 Y139.748 E1028.88682
G0 F5400 X140.265 Y139.35
G0 X131.78 Y139.748
G1 F60 X143.541 Y127.987 E1075.81699
G0 F5400 X143.343 Y128.342
G0 X148.273 Y131.74
G1 F60 X149.343 Y130.67 E1080.08663
G0 F5400 X149.21 Y131.045
G0 X138.346 Y124.757
G0 X138.601 Y124.442
G1 F60 X123.295 Y139.748 E1141.1625
G0 F5400 X123.295 Y139.35
G0 X114.81 Y139.748
G1 F60 X134.452 Y120.105 E1219.54239
G0 F5400 X134.147 Y120.372
G0 X131.107 Y114.965
G1 F60 X111.277 Y134.795 E1298.67047
G0 F5400 X111.676 Y134.795
G0 X111.277 Y126.31
G1 F60 X128.71 Y108.877 E1368.23374
G0 F5400 X128.311 Y108.962
G0 X127.575 Y101.527
G1 F60 X111.277 Y117.825 E1433.268
G0 F5400 X111.676 Y117.825
G0 X111.277 Y109.339
G1 F60 X128.449 Y92.167 E1501.78981
G1 X129.509 Y91.107
G0 F5400 X128.45 Y90.782
G0 X111.676 Y92.369
G0 X111.277 Y92.369
G1 F60 X143.395 Y60.251 E1629.95096
G0 F5400 X143.395 Y60.65
G0 X147.221 Y64.91
G92 E0
G1 F60 X151.881 Y60.25 E18.5949
G0 F5400 X151.881 Y60.65
G0 X147.22 Y64.911
G1 F60 X111.277 Y100.854 E162.01903
G1 X110.217 Y101.914
G0 F5400 X111.676 Y101.914
G0 X111.676 Y83.884
G0 X111.277 Y83.884
G1 F60 X134.91 Y60.251 E256.3223
G0 F5400 X134.91 Y60.65
G0 X126.424 Y60.251
G1 F60 X111.277 Y75.398 E316.7637
G0 F5400 X111.676 Y75.398
G0 X111.277 Y66.913
G1 F60 X117.939 Y60.251 E343.34722
G0 F5400 X117.939 Y60.65
G0 X152.014 Y68.117
G0 X152.114 Y68.502
G1 F60 X160.366 Y60.25 E376.27536
G0 F5400 X160.366 Y60.65
G0 X161.555 Y67.547
G1 F60 X168.852 Y60.25 E405.39273
G0 F5400 X168.852 Y60.65
G0 X172.804 Y64.783
G1 F60 X177.336 Y60.251 E423.47687
G0 F5400 X177.336 Y60.65
G0 X172.803 Y64.784
G1 F60 X168.836 Y68.751 E439.30648
G0 F5400 X168.937 Y68.366
G0 X174.952 Y71.12
G1 F60 X185.822 Y60.251 E482.67928
G0 F5400 X185.822 Y60.65
G0 X194.307 Y60.251
G1 F60 X180.123 Y74.435 E539.278
G0 F5400 X180.356 Y74.09
G0 X184.474 Y78.568
G1 F60 X202.792 Y60.251 E612.37072
G0 F5400 X202.792 Y60.65
G0 X208.723 Y62.805
G1 F60 X188.032 Y83.496 E694.93446
G0 F5400 X188.394 Y83.314
G0 X190.685 Y89.328
G1 F60 X208.723 Y71.291 E766.90989
G0 F5400 X208.324 Y71.291
G0 X208.723 Y79.776
G1 F60 X192.243 Y96.256 E832.67039
G0 F5400 X192.65 Y96.205
G0 X192.168 Y104.816
G1 F60 X208.723 Y88.261 E898.73016
G1 X209.783 Y87.201
G0 F5400 X202.424 Y87.201
;MESH:NONMESH
G0 F600 X202.424 Y87.201 Z6.3
G0 F5400 X214.354 Y145.38
G0 X217.424 Y148.45
;TIME_ELAPSED:3777.104137
;LAYER:2
;TYPE:WALL-OUTER
;MESH:Part1.STL
G1 F60 X102.577 Y148.449 E1222.78056
G1 X102.577 Y51.551 E1496.18636
G1 X217.424 Y51.55 E1820.23675
G92 E0
G1 X217.424 Y148.45 E273.41144
G0 F7200 X217.424 Y145.45
G0 X208.354 Y139.38
G0 X163.624 Y132.725
G0 X162.085 Y123.75
G1 F60 X165.981 Y123.09 E284.56095
G1 X169.805 Y121.743 E296.00051
G1 X173.364 Y119.758 E307.49883
G1 X176.501 Y117.221 E318.88249
G1 X179.178 Y114.183 E330.30756
G1 X181.296 Y110.742 E341.70844
G1 X182.805 Y106.984 E353.13486
G1 X183.657 Y103.033 E364.53919
G1 X183.829 Y98.985 E375.97126
G1 X183.314 Y94.97 E387.39274
G1 X182.136 Y91.114 E398.76915
G1 X180.318 Y87.505 E410.17128
G1 X177.897 Y84.233 E421.65593
G1 X174.981 Y81.442 E433.04505
G1 X171.629 Y79.176 E444.46136
G1 X167.913 Y77.5 E455.96347
G1 X164.001 Y76.487 E467.36557
G1 X159.967 Y76.149 E478.78772
G1 X155.996 Y76.487 E490.03275
G1 X152.025 Y77.522 E501.61158
G1 X148.381 Y79.169 E512.89486
G1 X145.002 Y81.453 E524.40274
G1 X142.114 Y84.226 E535.69967
G1 X139.689 Y87.495 E547.18424
G1 X137.87 Y91.102 E558.5826
G1 X136.681 Y94.986 E570.04364
G1 X136.169 Y99.002 E581.46684
G1 X136.342 Y103.025 E592.82856
G1 X137.19 Y106.971 E604.21672
G1 X138.699 Y110.733 E615.65362
G1 X140.822 Y114.183 E627.08351
G1 X143.499 Y117.222 E638.5107
G1 X146.643 Y119.759 E649.90972
G1 X150.18 Y121.737 E661.34422
G1 X153.959 Y123.074 E672.65466
G1 X157.863 Y123.748 E683.83308
G1 X160 Y123.846 E689.86914
G1 X162.085 Y123.75 E695.75837
G0 F7200 X160 Y123.846
G0 X159.088 Y123.805
