;FLAVOR:Marlin
;TIME:2855
;Filament used: 5.32007m
;Layer height: 2
;MINX:97.383
;MINY:22.972
;MINZ:27
;MAXX:123.983
;MAXY:49.572
;MAXZ:57
;TARGET_MACHINE.NAME:Unknown
;Generated with Cura_SteamEngine 5.5.0
M104 S240
M105
M109 S240
M82 ;absolute extrusion mode
;Prime the extruder
G92 E0
G1 F200 E3
G92 E0
G92 E0
G92 E0
;LAYER_COUNT:16
;LAYER:0
M107
;MESH:Box.STL
G0 F3600 X123.983 Y49.572 Z27
;TYPE:SKIN
G1 F60 X97.383 Y49.572 E50.03608
G1 X97.383 Y22.972 E100.07216
G1 X123.983 Y22.972 E150.10824
G1 X123.983 Y49.572 E200.14432
G0 F3600 X120.613 Y46.202
G0 X114.613 Y32.342
G0 X120.982 Y27.644
G1 F60 X119.31 Y25.972 E204.5922
G0 F3600 X114.613 Y32.342
G0 X110.824 Y25.972
G1 F60 X120.982 Y36.129 E231.61333
G0 F3600 X114.583 Y36.129
G0 X120.982 Y44.614
G1 F60 X102.339 Y25.972 E281.20638
G0 F3600 X106.753 Y32.342
G0 X100.382 Y32.5
G1 F60 X114.453 Y46.571 E318.63825
G0 F3600 X114.453 Y40.172
G0 X105.968 Y46.571
G1 F60 X100.382 Y40.985 E333.49821
;MESH:NONMESH
G0 F600 X100.382 Y40.985 Z29
G0 F3600 X106.753 Y40.202
G0 X120.613 Y46.202
G0 X123.983 Y49.572
;TIME_ELAPSED:181.906024
;LAYER:1
M106 S255
;TYPE:SKIN
;MESH:Box.STL
G1 F60 X97.383 Y49.572 E383.53429
G1 X97.383 Y22.972 E433.57037
G1 X123.983 Y22.972 E483.60645
G1 X123.983 Y49.572 E533.64253
G0 F5400 X120.613 Y46.202
G0 X120.981 Y40.238
G1 F60 X114.648 Y46.572 E550.491
G0 F5400 X114.648 Y40.172
G0 X106.162 Y46.572
G1 F60 X120.981 Y31.753 E589.91272
G0 F5400 X114.613 Y32.342
G0 X118.277 Y25.972
G1 F60 X100.382 Y43.867 E637.51725
G0 F5400 X106.753 Y40.202
G0 X100.382 Y35.382
G1 F60 X109.792 Y25.972 E662.54987
G0 F5400 X109.792 Y32.372
G0 X101.307 Y25.972
G1 F60 X100.382 Y26.896 E665.00924
;MESH:NONMESH
G0 F600 X100.382 Y26.896 Z31
G0 F5400 X106.753 Y32.342
G0 X120.613 Y46.202
G0 X123.983 Y49.572
;TIME_ELAPSED:359.807681
;LAYER:2
;TYPE:SKIN
;MESH:Box.STL
G1 F60 X97.383 Y49.572 E715.04532
G1 X97.383 Y22.972 E765.0814
G1 X123.983 Y22.972 E815.11748
G1 X123.983 Y49.572 E865.15356
G0 F7200 X120.613 Y46.202
G0 X114.613 Y32.342
G0 X120.982 Y27.644
G1 F60 X119.31 Y25.972 E869.60144
G0 F7200 X114.613 Y32.342
G0 X110.824 Y25.972
G1 F60 X120.982 Y36.129 E896.62257
G0 F7200 X114.583 Y36.129
G0 X120.982 Y44.614
G1 F60 X102.339 Y25.972 E946.21562
G0 F7200 X106.753 Y32.342
G0 X100.382 Y32.5
G1 F60 X114.453 Y46.571 E983.64749
G0 F7200 X114.453 Y40.172
G0 X105.968 Y46.571
G1 F60 X100.382 Y40.985 E998.50745
;MESH:NONMESH
G0 F600 X100.382 Y40.985 Z33
G0 F7200 X106.753 Y40.202
G0 X120.613 Y46.202
G0 X123.983 Y49.572
;TIME_ELAPSED:538.671202
;LAYER:3
;TYPE:SKIN
;MESH:Box.STL
G1 F60 X97.383 Y49.572 E1048.54353
G1 X97.383 Y22.972 E1098.57961
G1 X123.983 Y22.972 E1148.61569
G1 X123.983 Y49.572 E1198.65177
G0 F7200 X120.613 Y46.202
G0 X120.981 Y40.238
G1 F60 X114.648 Y46.572 E1215.50024
G0 F7200 X114.648 Y40.172
G0 X106.162 Y46.572
G1 F60 X120.981 Y31.753 E1254.92196
G0 F7200 X114.613 Y32.342
G0 X118.277 Y25.972
G1 F60 X100.382 Y43.867 E1302.52649
G0 F7200 X106.753 Y40.202
G0 X100.382 Y35.382
G1 F60 X109.792 Y25.972 E1327.55911
G0 F7200 X109.792 Y32.372
G0 X101.307 Y25.972
G1 F60 X100.382 Y26.896 E1330.01848
;MESH:NONMESH
G0 F600 X100.382 Y26.896 Z35
G0 F7200 X106.753 Y32.342
G0 X120.613 Y46.202
G0 X123.983 Y49.572
;TIME_ELAPSED:716.351263
;LAYER:4
;TYPE:SKIN
;MESH:Box.STL
G1 F60 X97.383 Y49.572 E1380.05456
G1 X97.383 Y22.972 E1430.09064
G1 X123.983 Y22.972 E1480.12672
G1 X123.983 Y49.572 E1530.1628
G0 F7200 X120.613 Y46.202
G0 X114.613 Y32.342
G0 X120.982 Y27.644
G1 F60 X119.31 Y25.972 E1534.61068
G0 F7200 X114.613 Y32.342
G0 X110.824 Y25.972
G1 F60 X120.982 Y36.129 E1561.63181
G0 F7200 X114.583 Y36.129
G0 X120.982 Y44.614
G1 F60 X102.339 Y25.972 E1611.22486
G0 F7200 X106.753 Y32.342
G0 X100.382 Y32.5
G92 E0
G1 F60 X114.453 Y46.571 E37.43188
G0 F7200 X114.453 Y40.172
G0 X105.968 Y46.571
G1 F60 X100.382 Y40.985 E52.29183
;MESH:NONMESH
G0 F600 X100.382 Y40.985 Z37
G0 F7200 X106.753 Y40.202
G0 X120.613 Y46.202
G0 X123.983 Y49.572
;TIME_ELAPSED:895.214766
;LAYER:5
;TYPE:SKIN
;MESH:Box.STL
G1 F60 X97.383 Y49.572 E102.32792
G1 X97.383 Y22.972 E152.364
G1 X123.983 Y22.972 E202.40008
G1 X123.983 Y49.572 E252.43616
G0 F7200 X120.613 Y46.202
G0 X120.981 Y40.238
G1 F60 X114.648 Y46.572 E269.28462
G0 F7200 X114.648 Y40.172
G0 X106.162 Y46.572
G1 F60 X120.981 Y31.753 E308.70634
G0 F7200 X114.613 Y32.342
G0 X118.277 Y25.972
G1 F60 X100.382 Y43.867 E356.31088
G0 F7200 X106.753 Y40.202
G0 X100.382 Y35.382
G1 F60 X109.792 Y25.972 E381.3435
G0 F7200 X109.792 Y32.372
G0 X101.307 Y25.972
G1 F60 X100.382 Y26.896 E383.80286
;MESH:NONMESH
G0 F600 X100.382 Y26.896 Z39
G0 F7200 X106.753 Y32.342
G0 X120.613 Y46.202
G0 X123.983 Y49.572
;TIME_ELAPSED:1072.894827
;LAYER:6
;TYPE:SKIN
;MESH:Box.STL
G1 F60 X97.383 Y49.572 E433.83895
G1 X97.383 Y22.972 E483.87503
G1 X123.983 Y22.972 E533.91111
G1 X123.983 Y49.572 E583.94719
G0 F7200 X120.613 Y46.202
G0 X114.613 Y32.342
G0 X120.982 Y27.644
G1 F60 X119.31 Y25.972 E588.39506
G0 F7200 X114.613 Y32.342
G0 X110.824 Y25.972
G1 F60 X120.982 Y36.129 E615.41619
G0 F7200 X114.583 Y36.129
G0 X120.982 Y44.614
G1 F60 X102.339 Y25.972 E665.00924
G0 F7200 X106.753 Y32.342
G0 X100.382 Y32.5
G1 F60 X114.453 Y46.571 E702.44112
G0 F7200 X114.453 Y40.172
G0 X105.968 Y46.571
G1 F60 X100.382 Y40.985 E717.30107
;MESH:NONMESH
G0 F600 X100.382 Y40.985 Z41
G0 F7200 X106.753 Y40.202
G0 X120.613 Y46.202
G0 X123.983 Y49.572
;TIME_ELAPSED:1251.758348
;LAYER:7
;TYPE:SKIN
;MESH:Box.STL
G1 F60 X97.383 Y49.572 E767.33716
G1 X97.383 Y22.972 E817.37324
G1 X123.983 Y22.972 E867.40932
G1 X123.983 Y49.572 E917.4454
G0 F7200 X120.613 Y46.202
G0 X120.981 Y40.238
G1 F60 X114.648 Y46.572 E934.29386
G0 F7200 X114.648 Y40.172
G0 X106.162 Y46.572
G1 F60 X120.981 Y31.753 E973.71558
G0 F7200 X114.613 Y32.342
G0 X118.277 Y25.972
G1 F60 X100.382 Y43.867 E1021.32012
G0 F7200 X106.753 Y40.202
G0 X100.382 Y35.382
G1 F60 X109.792 Y25.972 E1046.35274
G0 F7200 X109.792 Y32.372
G0 X101.307 Y25.972
G1 F60 X100.382 Y26.896 E1048.8121
;MESH:NONMESH
G0 F600 X100.382 Y26.896 Z43
G0 F7200 X106.753 Y32.342
G0 X120.613 Y46.202
G0 X123.983 Y49.572
;TIME_ELAPSED:1429.438409
;LAYER:8
;TYPE:SKIN
;MESH:Box.STL
G1 F60 X97.383 Y49.572 E1098.84819
G1 X97.383 Y22.972 E1148.88427
G1 X123.983 Y22.972 E1198.92035
G1 X123.983 Y49.572 E1248.95643
G0 F7200 X120.613 Y46.202
G0 X114.613 Y32.342
G0 X120.982 Y27.644
G1 F60 X119.31 Y25.972 E1253.4043
G0 F7200 X114.613 Y32.342
G0 X110.824 Y25.972
G1 F60 X120.982 Y36.129 E1280.42543
G0 F7200 X114.583 Y36.129
G0 X120.982 Y44.614
G1 F60 X102.339 Y25.972 E1330.01848
G0 F7200 X106.753 Y32.342
G0 X100.382 Y32.5
G1 F60 X114.453 Y46.571 E1367.45036
G0 F7200 X114.453 Y40.172
G0 X105.968 Y46.571
G1 F60 X100.382 Y40.985 E1382.31031
;MESH:NONMESH
G0 F600 X100.382 Y40.985 Z45
G0 F7200 X106.753 Y40.202
G0 X120.613 Y46.202
G0 X123.983 Y49.572
;TIME_ELAPSED:1608.301930
;LAYER:9
;TYPE:SKIN
;MESH:Box.STL
G1 F60 X97.383 Y49.572 E1432.3464
G1 X97.383 Y22.972 E1482.38248
G1 X123.983 Y22.972 E1532.41856
G1 X123.983 Y49.572 E1582.45464
G0 F7200 X120.613 Y46.202
G0 X120.981 Y40.238
G92 E0
G1 F60 X114.648 Y46.572 E16.84847
G0 F7200 X114.648 Y40.172
G0 X106.162 Y46.572
G1 F60 X120.981 Y31.753 E56.27019
G0 F7200 X114.613 Y32.342
G0 X118.277 Y25.972
G1 F60 X100.382 Y43.867 E103.87472
G0 F7200 X106.753 Y40.202
G0 X100.382 Y35.382
G1 F60 X109.792 Y25.972 E128.90734
G0 F7200 X109.792 Y32.372
G0 X101.307 Y25.972
G1 F60 X100.382 Y26.896 E131.36671
;MESH:NONMESH
G0 F600 X100.382 Y26.896 Z47
G0 F7200 X106.753 Y32.342
G0 X120.613 Y46.202
G0 X123.983 Y49.572
;TIME_ELAPSED:1785.981985
;LAYER:10
;TYPE:SKIN
;MESH:Box.STL
G1 F60 X97.383 Y49.572 E181.40279
G1 X97.383 Y22.972 E231.43887
G1 X123.983 Y22.972 E281.47495
G1 X123.983 Y49.572 E331.51103
G0 F7200 X120.613 Y46.202
G0 X114.613 Y32.342
G0 X120.982 Y27.644
G1 F60 X119.31 Y25.972 E335.95891
G0 F7200 X114.613 Y32.342
G0 X110.824 Y25.972
G1 F60 X120.982 Y36.129 E362.98004
G0 F7200 X114.583 Y36.129
G0 X120.982 Y44.614
G1 F60 X102.339 Y25.972 E412.57308
G0 F7200 X106.753 Y32.342
G0 X100.382 Y32.5
G1 F60 X114.453 Y46.571 E450.00496
G0 F7200 X114.453 Y40.172
G0 X105.968 Y46.571
G1 F60 X100.382 Y40.985 E464.86492
;MESH:NONMESH
G0 F600 X100.382 Y40.985 Z49
G0 F7200 X106.753 Y40.202
G0 X120.613 Y46.202
G0 X123.983 Y49.572
;TIME_ELAPSED:1964.845506
;LAYER:11
;TYPE:SKIN
;MESH:Box.STL
G1 F60 X97.383 Y49.572 E514.901
G1 X97.383 Y22.972 E564.93708
G1 X123.983 Y22.972 E614.97316
G1 X123.983 Y49.572 E665.00924
G0 F7200 X120.613 Y46.202
G0 X120.981 Y40.238
G1 F60 X114.648 Y46.572 E681.85771
G0 F7200 X114.648 Y40.172
G0 X106.162 Y46.572
G1 F60 X120.981 Y31.753 E721.27943
G0 F7200 X114.613 Y32.342
G0 X118.277 Y25.972
G1 F60 X100.382 Y43.867 E768.88396
G0 F7200 X106.753 Y40.202
G0 X100.382 Y35.382
G1 F60 X109.792 Y25.972 E793.91658
G0 F7200 X109.792 Y32.372
G0 X101.307 Y25.972
G1 F60 X100.382 Y26.896 E796.37595
;MESH:NONMESH
G0 F600 X100.382 Y26.896 Z51
G0 F7200 X106.753 Y32.342
G0 X120.613 Y46.202
G0 X123.983 Y49.572
;TIME_ELAPSED:2142.525567
;LAYER:12
;TYPE:SKIN
;MESH:Box.STL
G1 F60 X97.383 Y49.572 E846.41203
G1 X97.383 Y22.972 E896.44811
G1 X123.983 Y22.972 E946.48419
G1 X123.983 Y49.572 E996.52027
G0 F7200 X120.613 Y46.202
G0 X114.613 Y32.342
G0 X120.982 Y27.644
G1 F60 X119.31 Y25.972 E1000.96815
G0 F7200 X114.613 Y32.342
G0 X110.824 Y25.972
G1 F60 X120.982 Y36.129 E1027.98928
G0 F7200 X114.583 Y36.129
G0 X120.982 Y44.614
G1 F60 X102.339 Y25.972 E1077.58232
G0 F7200 X106.753 Y32.342
G0 X100.382 Y32.5
G1 F60 X114.453 Y46.571 E1115.0142
G0 F7200 X114.453 Y40.172
G0 X105.968 Y46.571
G1 F60 X100.382 Y40.985 E1129.87416
;MESH:NONMESH
G0 F600 X100.382 Y40.985 Z53
G0 F7200 X106.753 Y40.202
G0 X120.613 Y46.202
G0 X123.983 Y49.572
;TIME_ELAPSED:2321.389088
;LAYER:13
;TYPE:SKIN
;MESH:Box.STL
G1 F60 X97.383 Y49.572 E1179.91024
G1 X97.383 Y22.972 E1229.94632
G1 X123.983 Y22.972 E1279.9824
G1 X123.983 Y49.572 E1330.01848
G0 F7200 X120.613 Y46.202
G0 X120.981 Y40.238
G1 F60 X114.648 Y46.572 E1346.86695
G0 F7200 X114.648 Y40.172
G0 X106.162 Y46.572
G1 F60 X120.981 Y31.753 E1386.28867
G0 F7200 X114.613 Y32.342
G0 X118.277 Y25.972
G1 F60 X100.382 Y43.867 E1433.8932
G0 F7200 X106.753 Y40.202
G0 X100.382 Y35.382
G1 F60 X109.792 Y25.972 E1458.92582
G0 F7200 X109.792 Y32.372
G0 X101.307 Y25.972
G1 F60 X100.382 Y26.896 E1461.38519
;MESH:NONMESH
G0 F600 X100.382 Y26.896 Z55
G0 F7200 X106.753 Y32.342
G0 X120.613 Y46.202
G0 X123.983 Y49.572
;TIME_ELAPSED:2499.069149
;LAYER:14
;TYPE:SKIN
;MESH:Box.STL
G1 F60 X97.383 Y49.572 E1511.42127
G1 X97.383 Y22.972 E1561.45735
G1 X123.983 Y22.972 E1611.49343
G92 E0
G1 X123.983 Y49.572 E50.03608
G0 F7200 X120.613 Y46.202
G0 X114.613 Y32.342
G0 X120.982 Y27.644
G1 F60 X119.31 Y25.972 E54.48396
G0 F7200 X114.613 Y32.342
G0 X110.824 Y25.972
G1 F60 X120.982 Y36.129 E81.50509
G0 F7200 X114.583 Y36.129
G0 X120.982 Y44.614
G1 F60 X102.339 Y25.972 E131.09813
G0 F7200 X106.753 Y32.342
G0 X100.382 Y32.5
G1 F60 X114.453 Y46.571 E168.53001
G0 F7200 X114.453 Y40.172
G0 X105.968 Y46.571
G1 F60 X100.382 Y40.985 E183.38997
;MESH:NONMESH
G0 F600 X100.382 Y40.985 Z57
G0 F7200 X106.753 Y40.202
G0 X120.613 Y46.202
G0 X123.983 Y49.572
;TIME_ELAPSED:2677.932817
;LAYER:15
;TYPE:SKIN
;MESH:Box.STL
G1 F60 X97.383 Y49.572 E233.42605
G1 X97.383 Y22.972 E283.46213
G1 X123.983 Y22.972 E333.49821
G1 X123.983 Y49.572 E383.53429
G0 F7200 X120.613 Y46.202
G0 X120.981 Y40.238
G1 F60 X114.648 Y46.572 E400.38276
G0 F7200 X114.648 Y40.172
G0 X106.162 Y46.572
G1 F60 X120.981 Y31.753 E439.80448
G0 F7200 X114.613 Y32.342
G0 X118.277 Y25.972
G1 F60 X100.382 Y43.867 E487.40901
G0 F7200 X106.753 Y40.202
G0 X100.382 Y35.382
G1 F60 X109.792 Y25.972 E512.44163
G0 F7200 X109.792 Y32.372
G0 X101.307 Y25.972
G1 F60 X100.382 Y26.896 E514.901
;TIME_ELAPSED:2855.051632
M107
M104 S0
M140 S0
;Retract the filament
G92 E1
G1 E-1 F300
G28 X0 Y0
M84
M82 ;absolute extrusion mode
M104 S0
;End of Gcode
;SETTING_3 {"global_quality": "[general]\\nversion = 4\\nname = Fine #2\\ndefini
;SETTING_3 tion = custom\\n\\n[metadata]\\ntype = quality_changes\\nquality_type
;SETTING_3  = normal\\nsetting_version = 22\\n\\n[values]\\nadhesion_type = none
;SETTING_3 \\nlayer_height = 2\\nlayer_height_0 = 2\\n\\n", "extruder_quality": 
;SETTING_3 ["[general]\\nversion = 4\\nname = Fine #2\\ndefinition = custom\\n\\
;SETTING_3 n[metadata]\\ntype = quality_changes\\nquality_type = normal\\nintent
;SETTING_3 _category = default\\nposition = 0\\nsetting_version = 22\\n\\n[value
;SETTING_3 s]\\ninfill_sparse_density = 100.0\\nretraction_enable = False\\nspee
;SETTING_3 d_print = 2\\ntop_bottom_thickness = 1\\nwall_line_count = 0\\nwall_t
;SETTING_3 hickness = =wall_line_width_0 if magic_spiralize else 0.8\\nxy_offset
;SETTING_3  = 0\\n\\n"]}
