;FLAVOR:Marlin
;TIME:11113
;Filament used: 16.5181m
;Layer height: 1.4
;MINX:108.414
;MINY:83.378
;MINZ:1.4
;MAXX:166.152
;MAXY:141.817
;MAXZ:26.6
;TARGET_MACHINE.NAME:Unknown
;Generated with Cura_SteamEngine 5.5.0
M104 S240
M105
M109 S240
M82 ;absolute extrusion mode
G28 ;Home
G1 Z15.0 F6000 ;Move the platform down 15mm
;Prime the extruder
G92 E0
G1 F200 E3
G92 E0
G92 E0
G92 E0
;LAYER_COUNT:19
;LAYER:0
M107
;MESH:smiley.STL
G0 F3600 X119.823 Y90.265 Z1.4
;TYPE:FILL
G1 F60 X122.688 Y93.13 E5.33506
G0 F3600 X122.645 Y91.032
G0 X123.289 Y88.073
G1 F60 X149.226 Y114.011 E53.63458
G0 F3600 X140.876 Y114.167
G0 X151.408 Y110.536
G1 F60 X149.006 Y108.134 E58.10746
G0 F3600 X140.876 Y114.167
G0 X147.956 Y118.397
G1 F60 X133.085 Y103.526 E85.7995
G0 F3600 X137.227 Y111.407
G0 X130.643 Y106.742
G1 F60 X145.636 Y121.734 E113.71778
G0 F3600 X139.944 Y115.96
G0 X142.288 Y124.044
G1 F60 X127.797 Y109.552 E140.70313
G0 F3600 X134.234 Y114.866
G0 X123.633 Y111.045
G1 F60 X137.718 Y125.131 E166.93244
G1 X138.778 Y126.191
G0 F3600 X137.814 Y116.985
G0 X138.117 Y97.941
G0 X138.982 Y98.11
G1 F60 X127.166 Y86.293 E188.93654
G0 F3600 X127.918 Y88.256
G0 X131.524 Y84.995
G1 F60 X141.357 Y94.827 E207.24613
G0 F3600 X139.548 Y93.761
G0 X144.083 Y91.897
G1 F60 X136.61 Y84.424 E221.16198
G0 F3600 X136.72 Y86.519
G0 X142.737 Y84.895
G1 F60 X148.28 Y90.437 E231.48295
G0 F3600 X147.67 Y88.44
G0 X138.506 Y96.266
G0 X137.227 Y111.407
G0 X132.135 Y102.017
;TYPE:WALL-OUTER
G1 F44.1 X132.051 Y101.025 E233.26727
G1 F44.2 X131.995 Y100.49 E234.22927
G1 F44.5 X131.896 Y100.334 E234.55754
G1 F45.7 X131.556 Y99.561 E236.01826
G1 F47.4 X131.343 Y99.287 E236.59718
G1 F49 X131.116 Y99.052 E237.12362
G1 F51 X130.648 Y98.351 E238.42879
G1 F53.3 X130.389 Y98.152 E238.91263
G1 F55.8 X130.13 Y98.001 E239.33719
G1 F58.5 X129.553 Y97.385 E240.47672
G1 F60 X129.319 Y97.067 E240.99659
G1 X128.522 Y96.189 E242.55796
G1 X127.449 Y95.358 E244.34499
G1 X126.27 Y94.732 E246.10268
G1 X125.001 Y94.31 E247.86359
G1 X123.8 Y94.133 E249.46208
G1 X123.426 Y94.117 E249.95499
G1 F58.1 X122.591 Y93.936 E251.11694
G1 F53.3 X121.983 Y93.633 E252.12472
G1 F50.1 X121.797 Y93.605 E252.42148
G1 F48.1 X121.117 Y93.496 E253.55288
G1 F44.7 X120.358 Y93.356 E254.9184
G1 F41.4 X119.485 Y93.374 E256.58478
G1 F39.3 X119.062 Y93.38 E257.43417
G1 F38 X118.644 Y93.428 E258.30803
G1 F36.3 X117.776 Y93.593 E260.23016
G1 X118.155 Y92.795 E262.15203
G1 F38 X118.353 Y92.379 E263.10891
G1 F39.3 X118.654 Y91.924 E264.20427
G1 F41.4 X119.111 Y91.179 E265.8722
G1 F43.7 X119.375 Y90.746 E266.78849
G1 F45.6 X119.639 Y90.312 E267.66819
G1 F48.1 X119.994 Y89.723 E268.79799
G1 F49.6 X120.18 Y89.588 E269.16376
G1 F50.1 X120.296 Y89.438 E269.46292
G1 F51.9 X120.622 Y89.008 E270.28512
G1 F54.7 X120.948 Y88.578 E271.06397
G1 F58.1 X121.538 Y87.96 E272.22595
G1 F60 X122.372 Y87.418 E273.53563
G1 X125.191 Y85.982 E277.70137
G1 X128.113 Y84.86 E281.82278
G1 X131.185 Y84.037 E286.01045
G1 X134.302 Y83.544 E290.16574
G1 X137.453 Y83.378 E294.32054
G1 X140.603 Y83.543 E298.47395
G1 X143.721 Y84.037 E302.63075
G1 X146.794 Y84.86 E306.81969
G1 X147.707 Y85.211 E308.10766
G1 F58.1 X148.407 Y85.691 E309.26214
G1 F54.7 X148.815 Y86.044 E310.04109
G1 F51.8 X149.224 Y86.398 E310.86552
G1 F50.1 X149.355 Y86.509 E311.13626
G1 F49.7 X149.566 Y86.603 E311.50343
G1 F48.1 X150.054 Y87.123 E312.67483
G1 F45.6 X150.397 Y87.487 E313.54138
G1 F43.7 X150.74 Y87.851 E314.44493
G1 F41.4 X151.341 Y88.485 E316.1115
G1 F39.4 X151.733 Y88.871 E317.21597
G1 F38 X152.017 Y89.242 E318.18667
G1 F36.3 X152.55 Y89.937 E320.09244
G1 X151.675 Y89.954 E321.99672
G1 F38 X151.25 Y89.996 E322.884
G1 F39.4 X150.83 Y90.08 E323.74389
G1 F41.4 X149.972 Y90.245 E325.41071
G1 F44.6 X149.269 Y90.536 E326.75719
G1 F48.1 X148.603 Y90.791 E327.92863
G1 F50.1 X148.442 Y90.851 E328.19955
G1 F53.2 X147.909 Y91.273 E329.20839
G1 F58.1 X147.137 Y91.622 E330.36078
G1 F60 X146.782 Y91.713 E330.84333
G1 X145.642 Y92.138 E332.44534
G1 X144.477 Y92.819 E334.2222
G1 X143.454 Y93.679 E335.98197
G1 X142.59 Y94.701 E337.74413
G1 X141.983 Y95.738 E339.32631
G1 X141.817 Y96.105 E339.85668
G1 F58.5 X141.39 Y96.812 E340.97124
G1 F55.8 X141.162 Y97.017 E341.40524
G1 F53.3 X140.95 Y97.266 E341.88967
G1 F51 X140.64 Y98.046 E343.18902
G1 F49 X140.464 Y98.327 E343.72311
G1 F47.3 X140.307 Y98.653 E344.32708
G1 F45.6 X140.138 Y99.483 E345.7941
G1 F44.4 X140.079 Y99.641 E346.09394
G1 F44 X140.255 Y101.167 E348.85083
G1 F45 X140.571 Y101.608 E349.80344
G1 F47 X140.976 Y102.343 E351.21268
G1 F48.9 X141.222 Y102.591 E351.77659
G1 F50.9 X141.475 Y102.793 E352.27905
G1 F53.2 X142.008 Y103.45 E353.53524
G1 F55.9 X142.294 Y103.608 E353.99681
G1 F58.7 X142.544 Y103.729 E354.37075
G1 F60 X143.216 Y104.596 E355.81513
G1 X144.187 Y105.492 E357.55485
G1 X145.337 Y106.235 E359.35766
G1 F60 X146.58 Y106.759 E361.13415
G1 F60 X147.75 Y107.036 E362.71837
G1 F58.4 X147.892 Y107.222 E363.03508
G1 F55.3 X148.083 Y107.417 E363.42474
G1 F53.2 X148.288 Y107.515 E363.76208
G1 F50.7 X148.897 Y107.8 E364.80917
G1 F48 X149.145 Y107.963 E365.29763
G1 F45.7 X149.555 Y108.163 E366.08631
G1 F42.9 X150.402 Y108.375 E367.69567
G1 F41.1 X150.53 Y108.414 E367.95271
G1 F40.3 X151.15 Y108.542 E369.19476
G1 F38 X151.999 Y108.595 E370.96207
G1 F36 X152.422 Y108.615 E371.8916
G1 X152.14 Y108.936 E372.82947
G1 F37.5 X151.706 Y109.534 E374.38615
G1 F39.7 X151.295 Y110.205 E375.95291
G1 F41.1 X151.235 Y110.324 E376.20891
G1 F42.8 X151.015 Y110.931 E377.40137
G1 F45.6 X150.766 Y111.568 E378.58636
G1 F48 X150.725 Y111.862 E379.07495
G1 F50.7 X150.726 Y112.29 E379.74146
G1 F53.2 X150.684 Y112.512 E380.07689
G1 F55.3 X150.601 Y112.974 E380.74698
G1 F58.4 X150.649 Y113.186 E381.04112
G1 F60 X150.167 Y114.315 E382.65807
G1 F60 X149.46 Y117.338 E386.74598
G1 X148.737 Y119.137 E389.29893
G1 X147.743 Y120.805 E391.85567
G1 X146.492 Y122.314 E394.43664
G1 X145.036 Y123.602 E396.99629
G1 X143.401 Y124.649 E399.55274
G1 X141.614 Y125.434 E402.12278
G1 X139.736 Y125.933 E404.68142
G1 X137.796 Y126.137 E407.24998
G1 X135.847 Y126.039 E409.81954
G1 X133.948 Y125.645 E412.37328
G1 X132.13 Y124.959 E414.93187
G1 X130.422 Y123.995 E417.51434
G1 X128.906 Y122.796 E420.05938
G1 X127.577 Y121.359 E422.6367
G1 X126.493 Y119.748 E425.19347
G1 X125.176 Y116.938 E429.27973
G1 X124.471 Y115.938 E430.8908
G1 F58.4 X124.472 Y115.721 E431.18425
G1 F55.4 X124.295 Y115.29 E431.84878
G1 F53.3 X124.208 Y115.08 E432.1859
G1 F50.8 X124.125 Y114.675 E432.82852
G1 F48.1 X124.017 Y114.376 E433.35114
G1 F45.6 X123.634 Y113.798 E434.55341
G1 F42.8 X123.316 Y113.28 E435.67509
G1 F41.2 X123.224 Y113.164 E435.95893
G1 F39.9 X122.759 Y112.673 E437.298
G1 F38.7 X122.679 Y112.586 E437.53907
G1 F37.5 X122.137 Y112.096 E439.07793
G1 F36 X121.779 Y111.832 E440.0543
G1 F35.9 X122.102 Y111.752 E440.78726
G1 F37.4 X122.959 Y111.515 E442.66679
G1 F38.7 X123.072 Y111.477 E442.90995
G1 F39.9 X123.607 Y111.241 E444.06782
G1 F41.2 X123.736 Y111.169 E444.35105
G1 F42.8 X124.43 Y110.826 E445.77965
G1 F45.6 X124.856 Y110.519 E446.69013
G1 F48.1 X125.079 Y110.293 E447.21208
G1 F50.8 X125.598 Y109.897 E448.22683
G1 F53.3 X125.778 Y109.759 E448.56321
G1 F55.4 X125.923 Y109.532 E448.94739
G1 F58.4 X126.026 Y109.318 E449.26855
G1 F60 X127.167 Y108.778 E450.93071
G1 X128.265 Y107.99 E452.71028
G1 X129.194 Y107.067 E454.43464
G1 X129.971 Y105.965 E456.21011
G1 X130.431 Y105.005 E457.6118
G1 F58.7 X130.65 Y104.834 E457.98589
G1 F55.9 X130.895 Y104.623 E458.44251
G1 F53.2 X131.28 Y103.869 E459.69903
G1 F50.9 X131.489 Y103.616 E460.20819
G1 F48.9 X131.678 Y103.321 E460.77377
G1 F47 X131.926 Y102.498 E462.21852
G1 F45 X132.135 Y102.017 E463.14019
G0 F3600 X131.926 Y102.498
G0 X131.678 Y103.321
G0 X131.489 Y103.616
G0 X131.28 Y103.869
G0 X130.895 Y104.623
G0 X130.825 Y104.683
G0 X137.227 Y111.407
G0 X133.557 Y98.571
G0 X124.06 Y91.096
G0 X117.776 Y93.593
G1 F35.5 X117.119 Y94.146 E465.05003
G1 F35.9 X116.513 Y94.702 E466.85921
G1 F36.2 X115.945 Y95.331 E468.7087
G1 F36.4 X115.347 Y96.052 E470.74219
G1 F36.3 X114.909 Y96.639 E472.33487
G1 F36 X114.589 Y97.1 E473.56506
G1 F35.8 X114.127 Y97.894 E475.59476
G1 F35.6 X114.034 Y98.08 E476.0561
G0 F3600 X112.359 Y103.288
G0 X110.428 Y115.753
G0 X110.617 Y119.403
G1 F37.4 X110.435 Y120.272 E477.93013
G1 F36.5 X110.339 Y121.072 E479.67486
G1 X110.014 Y120.316 E481.45674
G1 F37.4 X109.655 Y119.48 E483.37713
G1 F38.3 X109.459 Y118.835 E484.76733
G1 F39.1 X109.266 Y118.219 E486.07263
G1 F40.1 X108.984 Y117.318 E487.93381
G1 F41.1 X108.784 Y116.688 E489.20291
G1 F41.6 X108.754 Y116.481 E489.59974
G1 F42.3 X108.569 Y115.56 E491.35228
G1 F43.3 X108.485 Y114.926 E492.51902
G1 F43.6 X108.414 Y113.551 E495.01572
G1 X108.572 Y110.521 E500.51769
G1 X109.048 Y107.518 E506.03123
G1 X109.836 Y104.578 E511.55071
G1 X110.342 Y103.257 E514.11589
G1 F43.1 X110.728 Y102.526 E515.6327
G1 F42 X111.095 Y101.891 E517.01273
G1 F41.2 X111.316 Y101.531 E517.82212
G1 F40.4 X111.811 Y100.852 E519.46424
G1 F39.2 X112.361 Y100.095 E521.34974
G1 F38 X112.893 Y99.348 E523.25405
G1 F37 X113.476 Y98.701 E525.11392
G1 F36 X114.034 Y98.08 E526.94536
G1 X113.863 Y98.897 E528.77644
G1 F37 X113.771 Y99.705 E530.5131
G1 F38 X113.74 Y100.57 E532.31042
G1 F39.2 X113.802 Y101.354 E533.89515
G1 F40.4 X113.915 Y102.186 E535.53602
G1 F41.2 X113.957 Y102.387 E535.92947
G1 F42 X114.116 Y102.901 E536.94184
G1 F43.1 X114.332 Y103.699 E538.45876
G1 F43.6 X114.494 Y104.388 E539.74225
G1 X114.754 Y105.18 E541.25384
G1 X115.029 Y105.825 E542.52534
G1 X115.585 Y106.874 E544.67824
G1 X116.404 Y107.928 E547.09871
G1 F43.5 X116.567 Y108.121 E547.5572
G1 F42.7 X116.866 Y108.606 E548.61039
G1 F41.5 X117.206 Y109.062 E549.69302
G1 F40.5 X117.44 Y109.392 E550.48147
G1 F39.7 X117.689 Y109.675 E551.23178
G1 F38.8 X118.198 Y110.146 E552.64334
G1 F38 X118.555 Y110.473 E553.65107
G1 F37.3 X118.836 Y110.689 E554.40095
G1 F36.7 X119.369 Y111.035 E555.76929
G1 F36 X120.066 Y111.471 E557.57117
G1 X119.268 Y111.561 E559.33124
G1 F36.7 X118.631 Y111.685 E560.72864
G1 F37.6 X117.971 Y111.885 E562.17793
G1 F38.7 X117.216 Y112.178 E563.83099
G1 F39.7 X116.882 Y112.351 E564.57969
G1 F40.5 X116.594 Y112.537 E565.24909
G1 F41.4 X116.029 Y112.876 E566.50552
G1 F42.7 X115.678 Y113.187 E567.37238
G1 F43.5 X114.643 Y113.786 E569.54376
G1 F43.6 X113.844 Y114.438 E571.4145
G1 F43.6 X113.359 Y114.912 E572.64425
G1 X112.935 Y115.4 E573.81654
G1 F43.3 X112.154 Y116.47 E576.23326
G1 F42.3 X111.733 Y116.995 E577.48872
G1 F41.2 X111.378 Y117.593 E578.82291
G1 F40.1 X111.022 Y118.272 E580.3343
G1 F39.1 X110.793 Y118.876 E581.64046
G1 F38.3 X110.617 Y119.403 E582.78626
G0 F3600 X110.793 Y118.876
G0 X111.022 Y118.272
G0 X111.378 Y117.593
G0 X111.733 Y116.995
G0 X111.945 Y116.731
G0 X110.448 Y115.748
G0 X110.339 Y121.072
G1 F36.2 X110.458 Y121.705 E584.19085
G1 F36.5 X110.584 Y122.282 E585.46894
G1 F36.7 X110.952 Y123.398 E587.99828
G1 F36.7 X111.638 Y125.054 E591.85289
G1 F36.8 X112.418 Y126.676 E595.7142
G1 F36.8 X112.971 Y127.68 E598.1723
G1 F36.8 X114.187 Y129.614 E603.07402
G1 F36.9 X114.579 Y130.174 E604.53905
G1 F36.8 X116.473 Y132.526 E611.02303
G1 F36.8 X118.538 Y134.566 E617.25821
G1 F36.9 X119.137 Y135.086 E618.9586
G1 F36.8 X120.836 Y136.415 E623.58634
G1 F36.8 X121.887 Y137.146 E626.33152
G1 F36.8 X123.327 Y138.03 E629.95549
G1 F36.8 X124.875 Y138.867 E633.73057
G1 F36.8 X125.966 Y139.378 E636.31417
G1 F36.8 X128.031 Y140.207 E641.08909
G1 F36.9 X128.699 Y140.438 E642.6044
G1 F36.8 X131.636 Y141.235 E649.13935
G1 X134.501 Y141.671 E655.36244
G1 F36.9 X135.247 Y141.736 E656.96749
G1 F36.8 X137.453 Y141.817 E661.70394
G1 F36.8 X138.693 Y141.791 E664.36374
G1 F36.8 X140.404 Y141.659 E668.04506
G1 F36.8 X142.113 Y141.432 E671.74376
G1 F36.8 X143.325 Y141.199 E674.39079
G1 F36.8 X145.464 Y140.662 E679.12223
G1 F36.9 X146.208 Y140.436 E680.78889
G1 F36.8 X148.897 Y139.422 E686.96137
G1 F36.8 X151.586 Y138.041 E693.45334
G1 F36.9 X152.206 Y137.667 E695.00517
G1 F36.8 X154.072 Y136.416 E699.82393
G1 F36.9 X155.023 Y135.696 E702.38064
G1 F36.8 X156.361 Y134.557 E706.1489
G1 F36.8 X157.582 Y133.396 E709.76287
G1 F36.8 X158.461 Y132.46 E712.51623
G1 F36.8 X159.849 Y130.804 E717.15099
G1 F36.9 X160.325 Y130.173 E718.84482
G1 F36.8 X161.913 Y127.765 E725.03953
G1 F36.8 X163.282 Y125.06 E731.54907
G1 F36.9 X163.548 Y124.43 E733.01456
G1 F36.8 X164.335 Y122.286 E737.91391
G1 F36.9 X164.674 Y121.171 E740.41211
G1 F36.8 X165.099 Y119.422 E744.27165
G1 F36.7 X165.423 Y117.679 E748.08332
G1 F36.7 X165.55 Y116.501 E750.63357
G1 F36.5 X165.554 Y115.928 E751.87374
G1 F36.2 X165.539 Y115.28 E753.28723
G0 F3600 X164.345 Y110.083
G0 X164.954 Y113.76
G1 F38.1 X164.639 Y113.224 E754.57807
G1 F39.1 X164.281 Y112.668 E755.91495
G1 F40.1 X163.796 Y112.078 E757.41994
G1 F41.2 X163.333 Y111.577 E758.72839
G1 F42.4 X162.809 Y111.149 E759.99047
G1 F43.3 X161.825 Y110.264 E762.40487
G1 F43.6 X161.026 Y109.66 E764.22137
G1 F43.5 X159.823 Y109.043 E766.67423
G1 F43.5 X158.674 Y108.669 E768.86804
G1 F42.8 X158.274 Y108.443 E769.71668
G1 F41.5 X157.662 Y108.229 E770.9514
G1 F40.5 X157.33 Y108.101 E771.64544
G1 F39.7 X156.951 Y108 E772.42599
G1 F38.7 X156.152 Y107.871 E774.07782
G1 F37.6 X155.484 Y107.818 E775.48516
G1 F36.7 X154.832 Y107.829 E776.88803
G1 F36.1 X154.018 Y107.905 E778.67841
G1 X154.62 Y107.322 E780.51365
G1 F36.7 X155.071 Y106.872 E781.88427
G1 F37.6 X155.486 Y106.346 E783.29141
G1 F38.7 X155.956 Y105.686 E784.94597
G1 F39.7 X156.166 Y105.32 E785.78616
G1 F40.6 X156.326 Y104.943 E786.58373
G1 F41.6 X156.565 Y104.424 E787.67015
G1 F42.8 X156.753 Y103.899 E788.70021
G1 F43.5 X156.951 Y103.524 E789.46985
G1 F43.6 X157.46 Y102.461 E791.60731
G1 X157.879 Y100.997 E794.369
G1 X158.005 Y99.812 E796.53022
G1 F43.2 X158.033 Y98.299 E799.29457
G1 F42.4 X158.081 Y97.755 E800.31316
G1 F41.6 X158.08 Y97.539 E800.72358
G1 F40.8 X158.012 Y96.708 E802.33909
G1 F39.6 X157.909 Y95.942 E803.88226
G1 F38.4 X157.695 Y95.102 E805.66473
G1 F37.4 X157.437 Y94.337 E807.37146
G1 F36.4 X157.097 Y93.572 E809.18862
G1 F35.8 X157.014 Y93.386 E809.6378
G1 X157.178 Y93.507 E810.08725
G1 F36.4 X157.853 Y94.002 E811.90419
G1 F37.4 X158.557 Y94.518 E813.74942
G1 F38.4 X159.236 Y95.145 E815.64989
G1 F39.6 X159.922 Y95.768 E817.5001
G1 F40.8 X160.539 Y96.329 E819.11587
G1 F41.6 X160.846 Y96.649 E819.95845
G1 F42.4 X161.347 Y97.211 E821.36271
G1 F43.2 X161.849 Y97.872 E822.87895
G1 F43.6 X162.604 Y99.036 E825.39515
G1 X163.979 Y101.732 E830.88378
G1 X165.07 Y104.578 E836.4115
G1 X165.858 Y107.519 E841.9334
G1 X166.073 Y108.873 E844.41977
G1 F43.3 X166.125 Y109.515 E845.59483
G1 F42.4 X166.135 Y110.459 E847.35585
G1 F41.7 X166.152 Y110.619 E847.6609
G1 F41.2 X166.086 Y111.311 E848.99421
G1 F40.1 X165.998 Y112.249 E850.85066
G1 F39.1 X165.938 Y112.908 E852.18842
G1 F38.4 X165.88 Y113.575 E853.56516
G1 F37.5 X165.705 Y114.453 E855.44894
G1 F36.5 X165.539 Y115.28 E857.27505
G1 X165.272 Y114.499 E859.06195
G1 F37.2 X164.954 Y113.76 E860.77083
G0 F3600 X165.272 Y114.499
G0 X165.539 Y115.28
G0 X165.705 Y114.453
G0 X165.808 Y113.936
G0 X164.345 Y110.083
G0 X159.867 Y98.295
G0 X157.014 Y93.386
G1 F35.8 X156.403 Y92.71 E862.78233
G1 F36 X155.988 Y92.32 E864.0305
G1 F36.3 X155.436 Y91.837 E865.62536
G1 F36.4 X154.713 Y91.264 E867.62764
G1 F36.2 X154.018 Y90.76 E869.50115
G1 F35.9 X153.3 Y90.337 E871.33454
G1 F35.5 X152.55 Y89.937 E873.2251
;MESH:NONMESH
G0 F600 X152.55 Y89.937 Z2.8
G0 F3600 X147.67 Y88.44
G0 X122.238 Y91.114
G0 X120.031 Y91.373
;TIME_ELAPSED:673.358924
;LAYER:1
M106 S255
;TYPE:FILL
;MESH:smiley.STL
G1 F90 X123.378 Y88.027 E879.45679
G0 F5400 X124.33 Y89.898
G0 X123.919 Y93.142
G1 F90 X132.168 Y84.893 E894.81766
G0 F5400 X132.495 Y86.966
G0 X138.295 Y84.423
G1 F90 X128.105 Y94.613 E913.79297
G0 F5400 X129.395 Y92.947
G0 X130.951 Y97.423
G1 F90 X143.379 Y84.996 E936.93484
G0 F5400 X143.051 Y87.067
G0 X147.739 Y86.293
G1 F90 X133.892 Y100.14 E962.72003
G0 F5400 X137.227 Y111.407
G0 X138.288 Y101.4
G1 F90 X124.814 Y114.875 E987.81157
G0 F5400 X134.234 Y114.866
G0 X126.959 Y118.386
G1 F90 X141.409 Y103.936 E1014.71964
G0 F5400 X137.227 Y111.407
G0 X144.269 Y106.733
