;FLAVOR:Marlin
;TIME:6019
;Filament used: 10.2786m
;Layer height: 2
;MINX:142.475
;MINY:82.475
;MINZ:27
;MAXX:177.525
;MAXY:117.525
;MAXZ:40
;TARGET_MACHINE.NAME:Unknown
;Generated with Cura_SteamEngine 5.5.0
M104 S240
M105
M109 S240
M82 ;absolute extrusion mode
G28 ;Home
;Prime the extruder
G92 E0
G1 F200 E3
G92 E0
G92 E0
G92 E0
;LAYER_COUNT:20
;LAYER:0
M107
;MESH:Box.STL
G0 F3600 X177.525 Y117.525 Z27
;TYPE:SKIN
G1 F60 X142.475 Y117.525 E60.43675
G1 X142.475 Y82.475 E120.8735
G1 X177.525 Y82.475 E181.31025
G1 X177.525 Y117.525 E241.747
G0 F3600 X174.43 Y114.43
G0 X168.93 Y91.07
G0 X174.774 Y89.214
G1 F60 X170.784 Y85.224 E251.47674
G0 F3600 X168.93 Y91.07
G0 X163.006 Y85.224
G1 F60 X174.774 Y96.992 E280.17336
G0 F3600 X168.9 Y96.992
G0 X174.774 Y104.77
G1 F60 X155.228 Y85.224 E327.83686
G0 F3600 X155.228 Y91.1
G0 X147.45 Y85.224
G1 F60 X174.774 Y112.548 E394.46725
G0 F3600 X168.93 Y108.93
G0 X169.221 Y114.774
G1 F60 X145.224 Y90.776 E452.98587
G0 F3600 X151.07 Y91.07
G0 X145.224 Y98.555
G1 F60 X161.443 Y114.774 E492.53639
G0 F3600 X161.443 Y108.9
G0 X153.665 Y114.774
G1 F60 X145.224 Y106.333 E513.12002
G1 X144.252 Y105.361
;MESH:NONMESH
G0 F600 X144.252 Y105.361 Z4
G0 F3600 X151.1 Y105.361
G0 X174.43 Y114.43
G0 X177.525 Y117.525
;TIME_ELAPSED:305.652152
;LAYER:1
M106 S255
;TYPE:SKIN
;MESH:Box.STL
G1 F60 X142.475 Y117.525 E573.55677
G1 X142.475 Y82.475 E633.99352
G1 X177.525 Y82.475 E694.43027
G1 X177.525 Y117.525 E754.86702
G0 F5400 X174.43 Y114.43
G0 X174.774 Y113.018
G1 F60 X173.017 Y114.774 E759.1503
G0 F5400 X168.93 Y108.93
G0 X165.239 Y114.774
G1 F60 X174.774 Y105.24 E782.40046
G0 F5400 X168.9 Y105.24
G0 X174.774 Y97.461
G1 F60 X157.461 Y114.774 E824.61873
G0 F5400 X157.461 Y108.9
G0 X149.683 Y114.774
G1 F60 X174.774 Y89.683 E885.80388
G0 F5400 X168.93 Y91.07
G0 X171.455 Y85.224
G1 F60 X145.224 Y111.455 E949.76896
G0 F5400 X151.07 Y108.93
G0 X145.224 Y103.677
G1 F60 X163.676 Y85.224 E994.76593
G0 F5400 X163.676 Y91.1
G0 X155.898 Y85.224
G1 F60 X145.224 Y95.899 E1020.79602
G0 F5400 X151.1 Y95.899
G0 X145.224 Y88.121
G1 F60 X148.12 Y85.224 E1027.85922
;MESH:NONMESH
G0 F600 X148.12 Y85.224 Z6
G0 F5400 X151.07 Y91.07
G0 X174.43 Y114.43
G0 X177.525 Y117.525
;TIME_ELAPSED:606.473406
;LAYER:2
;TYPE:SKIN
;MESH:Box.STL
G1 F60 X142.475 Y117.525 E1088.29597
G1 X142.475 Y82.475 E1148.73272
G1 X177.525 Y82.475 E1209.16947
G1 X177.525 Y117.525 E1269.60623
G0 F7200 X174.43 Y114.43
G0 X168.93 Y91.07
G0 X174.774 Y89.214
G1 F60 X170.784 Y85.224 E1279.33596
G0 F7200 X168.93 Y91.07
G0 X163.006 Y85.224
G1 F60 X174.774 Y96.992 E1308.03258
G0 F7200 X168.9 Y96.992
G0 X174.774 Y104.77
G1 F60 X155.228 Y85.224 E1355.69608
G0 F7200 X155.228 Y91.1
G0 X147.45 Y85.224
G1 F60 X174.774 Y112.548 E1422.32647
G0 F7200 X168.93 Y108.93
G0 X169.221 Y114.774
G1 F60 X145.224 Y90.776 E1480.8451
G0 F7200 X151.07 Y91.07
G0 X145.224 Y98.555
G1 F60 X161.443 Y114.774 E1520.39561
G0 F7200 X161.443 Y108.9
G0 X153.665 Y114.774
G1 F60 X145.224 Y106.333 E1540.97924
G1 X144.252 Y105.361
;MESH:NONMESH
G0 F600 X144.252 Y105.361 Z8
G0 F7200 X151.1 Y105.361
G0 X174.43 Y114.43
G0 X177.525 Y117.525
;TIME_ELAPSED:907.466110
;LAYER:3
;TYPE:SKIN
;MESH:Box.STL
G1 F60 X142.475 Y117.525 E1601.41599
G92 E0
G1 X142.475 Y82.475 E60.43675
G1 X177.525 Y82.475 E120.8735
G1 X177.525 Y117.525 E181.31025
G0 F7200 X174.43 Y114.43
G0 X174.774 Y113.018
G1 F60 X173.017 Y114.774 E185.59353
G0 F7200 X168.93 Y108.93
G0 X165.239 Y114.774
G1 F60 X174.774 Y105.24 E208.84369
G0 F7200 X168.9 Y105.24
G0 X174.774 Y97.461
G1 F60 X157.461 Y114.774 E251.06196
G0 F7200 X157.461 Y108.9
G0 X149.683 Y114.774
G1 F60 X174.774 Y89.683 E312.24711
G0 F7200 X168.93 Y91.07
G0 X171.455 Y85.224
G1 F60 X145.224 Y111.455 E376.21219
G0 F7200 X151.07 Y108.93
G0 X145.224 Y103.677
G1 F60 X163.676 Y85.224 E421.20916
G0 F7200 X163.676 Y91.1
G0 X155.898 Y85.224
G1 F60 X145.224 Y95.899 E447.23925
G0 F7200 X151.1 Y95.899
G0 X145.224 Y88.121
G1 F60 X148.12 Y85.224 E454.30245
;MESH:NONMESH
G0 F600 X148.12 Y85.224 Z10
G0 F7200 X151.07 Y91.07
G0 X174.43 Y114.43
G0 X177.525 Y117.525
;TIME_ELAPSED:1207.983777
;LAYER:4
;TYPE:SKIN
;MESH:Box.STL
G1 F60 X142.475 Y117.525 E514.7392
G1 X142.475 Y82.475 E575.17595
G1 X177.525 Y82.475 E635.6127
G1 X177.525 Y117.525 E696.04946
G0 F7200 X174.43 Y114.43
G0 X168.93 Y91.07
G0 X174.774 Y89.214
G1 F60 X170.784 Y85.224 E705.77919
G0 F7200 X168.93 Y91.07
G0 X163.006 Y85.224
G1 F60 X174.774 Y96.992 E734.47581
G0 F7200 X168.9 Y96.992
G0 X174.774 Y104.77
G1 F60 X155.228 Y85.224 E782.13931
G0 F7200 X155.228 Y91.1
G0 X147.45 Y85.224
G1 F60 X174.774 Y112.548 E848.7697
G0 F7200 X168.93 Y108.93
G0 X169.221 Y114.774
G1 F60 X145.224 Y90.776 E907.28833
G0 F7200 X151.07 Y91.07
G0 X145.224 Y98.555
G1 F60 X161.443 Y114.774 E946.83884
G0 F7200 X161.443 Y108.9
G0 X153.665 Y114.774
G1 F60 X145.224 Y106.333 E967.42247
G1 X144.252 Y105.361
;MESH:NONMESH
G0 F600 X144.252 Y105.361 Z12
G0 F7200 X151.1 Y105.361
G0 X174.43 Y114.43
G0 X177.525 Y117.525
;TIME_ELAPSED:1508.976481
;LAYER:5
;TYPE:SKIN
;MESH:Box.STL
G1 F60 X142.475 Y117.525 E1027.85922
G1 X142.475 Y82.475 E1088.29597
G1 X177.525 Y82.475 E1148.73272
G1 X177.525 Y117.525 E1209.16947
G0 F7200 X174.43 Y114.43
G0 X174.774 Y113.018
G1 F60 X173.017 Y114.774 E1213.45275
G0 F7200 X168.93 Y108.93
G0 X165.239 Y114.774
G1 F60 X174.774 Y105.24 E1236.70292
G0 F7200 X168.9 Y105.24
G0 X174.774 Y97.461
G1 F60 X157.461 Y114.774 E1278.92118
G0 F7200 X157.461 Y108.9
G0 X149.683 Y114.774
G1 F60 X174.774 Y89.683 E1340.10634
G0 F7200 X168.93 Y91.07
G0 X171.455 Y85.224
G1 F60 X145.224 Y111.455 E1404.07141
G0 F7200 X151.07 Y108.93
G0 X145.224 Y103.677
G1 F60 X163.676 Y85.224 E1449.06839
G0 F7200 X163.676 Y91.1
G0 X155.898 Y85.224
G1 F60 X145.224 Y95.899 E1475.09847
G0 F7200 X151.1 Y95.899
G0 X145.224 Y88.121
G1 F60 X148.12 Y85.224 E1482.16168
;MESH:NONMESH
G0 F600 X148.12 Y85.224 Z14
G0 F7200 X151.07 Y91.07
G0 X174.43 Y114.43
G0 X177.525 Y117.525
;TIME_ELAPSED:1809.493871
;LAYER:6
;TYPE:SKIN
;MESH:Box.STL
G1 F60 X142.475 Y117.525 E1542.59843
G1 X142.475 Y82.475 E1603.03518
G92 E0
G1 X177.525 Y82.475 E60.43675
G1 X177.525 Y117.525 E120.8735
G0 F7200 X174.43 Y114.43
G0 X168.93 Y91.07
G0 X174.774 Y89.214
G1 F60 X170.784 Y85.224 E130.60324
G0 F7200 X168.93 Y91.07
G0 X163.006 Y85.224
G1 F60 X174.774 Y96.992 E159.29985
G0 F7200 X168.9 Y96.992
G0 X174.774 Y104.77
G1 F60 X155.228 Y85.224 E206.96336
G0 F7200 X155.228 Y91.1
G0 X147.45 Y85.224
G1 F60 X174.774 Y112.548 E273.59375
G0 F7200 X168.93 Y108.93
G0 X169.221 Y114.774
G1 F60 X145.224 Y90.776 E332.11237
G0 F7200 X151.07 Y91.07
G0 X145.224 Y98.555
G1 F60 X161.443 Y114.774 E371.66289
G0 F7200 X161.443 Y108.9
G0 X153.665 Y114.774
G1 F60 X145.224 Y106.333 E392.24652
G1 X144.252 Y105.361
;MESH:NONMESH
G0 F600 X144.252 Y105.361 Z16
G0 F7200 X151.1 Y105.361
G0 X174.43 Y114.43
G0 X177.525 Y117.525
;TIME_ELAPSED:2110.486853
;LAYER:7
;TYPE:SKIN
;MESH:Box.STL
G1 F60 X142.475 Y117.525 E452.68327
G1 X142.475 Y82.475 E513.12002
G1 X177.525 Y82.475 E573.55677
G1 X177.525 Y117.525 E633.99352
G0 F7200 X174.43 Y114.43
G0 X174.774 Y113.018
G1 F60 X173.017 Y114.774 E638.2768
G0 F7200 X168.93 Y108.93
G0 X165.239 Y114.774
G1 F60 X174.774 Y105.24 E661.52696
G0 F7200 X168.9 Y105.24
G0 X174.774 Y97.461
G1 F60 X157.461 Y114.774 E703.74523
G0 F7200 X157.461 Y108.9
G0 X149.683 Y114.774
G1 F60 X174.774 Y89.683 E764.93038
G0 F7200 X168.93 Y91.07
G0 X171.455 Y85.224
G1 F60 X145.224 Y111.455 E828.89546
G0 F7200 X151.07 Y108.93
G0 X145.224 Y103.677
G1 F60 X163.676 Y85.224 E873.89243
G0 F7200 X163.676 Y91.1
G0 X155.898 Y85.224
G1 F60 X145.224 Y95.899 E899.92252
G0 F7200 X151.1 Y95.899
G0 X145.224 Y88.121
G1 F60 X148.12 Y85.224 E906.98572
;MESH:NONMESH
G0 F600 X148.12 Y85.224 Z18
G0 F7200 X151.07 Y91.07
G0 X174.43 Y114.43
G0 X177.525 Y117.525
;TIME_ELAPSED:2411.004243
;LAYER:8
;TYPE:SKIN
;MESH:Box.STL
G1 F60 X142.475 Y117.525 E967.42247
G1 X142.475 Y82.475 E1027.85922
G1 X177.525 Y82.475 E1088.29597
G1 X177.525 Y117.525 E1148.73272
G0 F7200 X174.43 Y114.43
G0 X168.93 Y91.07
G0 X174.774 Y89.214
G1 F60 X170.784 Y85.224 E1158.46246
G0 F7200 X168.93 Y91.07
G0 X163.006 Y85.224
G1 F60 X174.774 Y96.992 E1187.15908
G0 F7200 X168.9 Y96.992
G0 X174.774 Y104.77
G1 F60 X155.228 Y85.224 E1234.82258
G0 F7200 X155.228 Y91.1
G0 X147.45 Y85.224
G1 F60 X174.774 Y112.548 E1301.45297
G0 F7200 X168.93 Y108.93
G0 X169.221 Y114.774
G1 F60 X145.224 Y90.776 E1359.97159
G0 F7200 X151.07 Y91.07
G0 X145.224 Y98.555
G1 F60 X161.443 Y114.774 E1399.52211
G0 F7200 X161.443 Y108.9
G0 X153.665 Y114.774
G1 F60 X145.224 Y106.333 E1420.10574
G1 X144.252 Y105.361
;MESH:NONMESH
G0 F600 X144.252 Y105.361 Z20
G0 F7200 X151.1 Y105.361
G0 X174.43 Y114.43
G0 X177.525 Y117.525
;TIME_ELAPSED:2711.996947
;LAYER:9
;TYPE:SKIN
;MESH:Box.STL
G1 F60 X142.475 Y117.525 E1480.54249
G1 X142.475 Y82.475 E1540.97924
G1 X177.525 Y82.475 E1601.41599
G92 E0
G1 X177.525 Y117.525 E60.43675
G0 F7200 X174.43 Y114.43
G0 X174.774 Y113.018
G1 F60 X173.017 Y114.774 E64.72003
G0 F7200 X168.93 Y108.93
G0 X165.239 Y114.774
G1 F60 X174.774 Y105.24 E87.97019
G0 F7200 X168.9 Y105.24
G0 X174.774 Y97.461
G1 F60 X157.461 Y114.774 E130.18846
G0 F7200 X157.461 Y108.9
G0 X149.683 Y114.774
G1 F60 X174.774 Y89.683 E191.37361
G0 F7200 X168.93 Y91.07
G0 X171.455 Y85.224
G1 F60 X145.224 Y111.455 E255.33869
G0 F7200 X151.07 Y108.93
G0 X145.224 Y103.677
G1 F60 X163.676 Y85.224 E300.33566
G0 F7200 X163.676 Y91.1
G0 X155.898 Y85.224
G1 F60 X145.224 Y95.899 E326.36575
G0 F7200 X151.1 Y95.899
G0 X145.224 Y88.121
G1 F60 X148.12 Y85.224 E333.42895
;MESH:NONMESH
G0 F600 X148.12 Y85.224 Z22
G0 F7200 X151.07 Y91.07
G0 X174.43 Y114.43
G0 X177.525 Y117.525
;TIME_ELAPSED:3012.514475
;LAYER:10
;TYPE:SKIN
;MESH:Box.STL
G1 F60 X142.475 Y117.525 E393.8657
G1 X142.475 Y82.475 E454.30245
G1 X177.525 Y82.475 E514.7392
G1 X177.525 Y117.525 E575.17595
G0 F7200 X174.43 Y114.43
G0 X168.93 Y91.07
G0 X174.774 Y89.214
G1 F60 X170.784 Y85.224 E584.90569
G0 F7200 X168.93 Y91.07
G0 X163.006 Y85.224
G1 F60 X174.774 Y96.992 E613.60231
G0 F7200 X168.9 Y96.992
G0 X174.774 Y104.77
G1 F60 X155.228 Y85.224 E661.26581
G0 F7200 X155.228 Y91.1
G0 X147.45 Y85.224
G1 F60 X174.774 Y112.548 E727.8962
G0 F7200 X168.93 Y108.93
G0 X169.221 Y114.774
G1 F60 X145.224 Y90.776 E786.41482
G0 F7200 X151.07 Y91.07
G0 X145.224 Y98.555
G1 F60 X161.443 Y114.774 E825.96534
G0 F7200 X161.443 Y108.9
G0 X153.665 Y114.774
G1 F60 X145.224 Y106.333 E846.54897
G1 X144.252 Y105.361
;MESH:NONMESH
G0 F600 X144.252 Y105.361 Z24
G0 F7200 X151.1 Y105.361
G0 X174.43 Y114.43
G0 X177.525 Y117.525
;TIME_ELAPSED:3313.507179
;LAYER:11
;TYPE:SKIN
;MESH:Box.STL
G1 F60 X142.475 Y117.525 E906.98572
G1 X142.475 Y82.475 E967.42247
G1 X177.525 Y82.475 E1027.85922
G1 X177.525 Y117.525 E1088.29597
G0 F7200 X174.43 Y114.43
G0 X174.774 Y113.018
G1 F60 X173.017 Y114.774 E1092.57925
G0 F7200 X168.93 Y108.93
G0 X165.239 Y114.774
G1 F60 X174.774 Y105.24 E1115.82941
G0 F7200 X168.9 Y105.24
G0 X174.774 Y97.461
G1 F60 X157.461 Y114.774 E1158.04768
G0 F7200 X157.461 Y108.9
G0 X149.683 Y114.774
G1 F60 X174.774 Y89.683 E1219.23284
G0 F7200 X168.93 Y91.07
G0 X171.455 Y85.224
G1 F60 X145.224 Y111.455 E1283.19791
G0 F7200 X151.07 Y108.93
G0 X145.224 Y103.677
G1 F60 X163.676 Y85.224 E1328.19489
G0 F7200 X163.676 Y91.1
G0 X155.898 Y85.224
G1 F60 X145.224 Y95.899 E1354.22497
G0 F7200 X151.1 Y95.899
G0 X145.224 Y88.121
G1 F60 X148.12 Y85.224 E1361.28817
;MESH:NONMESH
G0 F600 X148.12 Y85.224 Z26
G0 F7200 X151.07 Y91.07
G0 X174.43 Y114.43
G0 X177.525 Y117.525
;TIME_ELAPSED:3614.024569
;LAYER:12
;TYPE:SKIN
;MESH:Box.STL
G1 F60 X142.475 Y117.525 E1421.72493
G1 X142.475 Y82.475 E1482.16168
G1 X177.525 Y82.475 E1542.59843
G1 X177.525 Y117.525 E1603.03518
G0 F7200 X174.43 Y114.43
G0 X168.93 Y91.07
G0 X174.774 Y89.214
G92 E0
G1 F60 X170.784 Y85.224 E9.72973
G0 F7200 X168.93 Y91.07
G0 X163.006 Y85.224
G1 F60 X174.774 Y96.992 E38.42635
G0 F7200 X168.9 Y96.992
G0 X174.774 Y104.77
G1 F60 X155.228 Y85.224 E86.08986
G0 F7200 X155.228 Y91.1
G0 X147.45 Y85.224
G1 F60 X174.774 Y112.548 E152.72025
G0 F7200 X168.93 Y108.93
G0 X169.221 Y114.774
G1 F60 X145.224 Y90.776 E211.23887
G0 F7200 X151.07 Y91.07
G0 X145.224 Y98.555
G1 F60 X161.443 Y114.774 E250.78939
G0 F7200 X161.443 Y108.9
G0 X153.665 Y114.774
G1 F60 X145.224 Y106.333 E271.37302
G1 X144.252 Y105.361
;MESH:NONMESH
G0 F600 X144.252 Y105.361 Z28
G0 F7200 X151.1 Y105.361
G0 X174.43 Y114.43
G0 X177.525 Y117.525
;TIME_ELAPSED:3915.017272
;LAYER:13
;TYPE:SKIN
;MESH:Box.STL
G1 F60 X142.475 Y117.525 E331.80977
G1 X142.475 Y82.475 E392.24652
G1 X177.525 Y82.475 E452.68327
G1 X177.525 Y117.525 E513.12002
G0 F7200 X174.43 Y114.43
G0 X174.774 Y113.018
G1 F60 X173.017 Y114.774 E517.4033
G0 F7200 X168.93 Y108.93
G0 X165.239 Y114.774
G1 F60 X174.774 Y105.24 E540.65346
G0 F7200 X168.9 Y105.24
G0 X174.774 Y97.461
G1 F60 X157.461 Y114.774 E582.87173
G0 F7200 X157.461 Y108.9
G0 X149.683 Y114.774
G1 F60 X174.774 Y89.683 E644.05688
G0 F7200 X168.93 Y91.07
G0 X171.455 Y85.224
G1 F60 X145.224 Y111.455 E708.02196
G0 F7200 X151.07 Y108.93
G0 X145.224 Y103.677
G1 F60 X163.676 Y85.224 E753.01893
G0 F7200 X163.676 Y91.1
G0 X155.898 Y85.224
G1 F60 X145.224 Y95.899 E779.04902
G0 F7200 X151.1 Y95.899
G0 X145.224 Y88.121
G1 F60 X148.12 Y85.224 E786.11222
;MESH:NONMESH
G0 F600 X148.12 Y85.224 Z30
G0 F7200 X151.07 Y91.07
G0 X174.43 Y114.43
G0 X177.525 Y117.525
;TIME_ELAPSED:4215.534661
;LAYER:14
;TYPE:SKIN
;MESH:Box.STL
G1 F60 X142.475 Y117.525 E846.54897
G1 X142.475 Y82.475 E906.98572
G1 X177.525 Y82.475 E967.42247
G1 X177.525 Y117.525 E1027.85922
G0 F7200 X174.43 Y114.43
G0 X168.93 Y91.07
G0 X174.774 Y89.214
G1 F60 X170.784 Y85.224 E1037.58896
G0 F7200 X168.93 Y91.07
G0 X163.006 Y85.224
G1 F60 X174.774 Y96.992 E1066.28558
G0 F7200 X168.9 Y96.992
G0 X174.774 Y104.77
G1 F60 X155.228 Y85.224 E1113.94908
G0 F7200 X155.228 Y91.1
G0 X147.45 Y85.224
G1 F60 X174.774 Y112.548 E1180.57947
G0 F7200 X168.93 Y108.93
G0 X169.221 Y114.774
G1 F60 X145.224 Y90.776 E1239.09809
G0 F7200 X151.07 Y91.07
G0 X145.224 Y98.555
G1 F60 X161.443 Y114.774 E1278.64861
G0 F7200 X161.443 Y108.9
G0 X153.665 Y114.774
G1 F60 X145.224 Y106.333 E1299.23224
G1 X144.252 Y105.361
;MESH:NONMESH
G0 F600 X144.252 Y105.361 Z32
G0 F7200 X151.1 Y105.361
G0 X174.43 Y114.43
G0 X177.525 Y117.525
;TIME_ELAPSED:4516.527365
;LAYER:15
;TYPE:SKIN
;MESH:Box.STL
G1 F60 X142.475 Y117.525 E1359.66899
G1 X142.475 Y82.475 E1420.10574
G1 X177.525 Y82.475 E1480.54249
G1 X177.525 Y117.525 E1540.97924
G0 F7200 X174.43 Y114.43
G0 X174.774 Y113.018
G1 F60 X173.017 Y114.774 E1545.26252
G0 F7200 X168.93 Y108.93
G0 X165.239 Y114.774
G1 F60 X174.774 Y105.24 E1568.51268
G0 F7200 X168.9 Y105.24
G0 X174.774 Y97.461
G92 E0
G1 F60 X157.461 Y114.774 E42.21827
G0 F7200 X157.461 Y108.9
G0 X149.683 Y114.774
G1 F60 X174.774 Y89.683 E103.40342
G0 F7200 X168.93 Y91.07
G0 X171.455 Y85.224
G1 F60 X145.224 Y111.455 E167.3685
G0 F7200 X151.07 Y108.93
G0 X145.224 Y103.677
G1 F60 X163.676 Y85.224 E212.36547
G0 F7200 X163.676 Y91.1
G0 X155.898 Y85.224
G1 F60 X145.224 Y95.899 E238.39556
G0 F7200 X151.1 Y95.899
G0 X145.224 Y88.121
G1 F60 X148.12 Y85.224 E245.45876
;MESH:NONMESH
G0 F600 X148.12 Y85.224 Z34
G0 F7200 X151.07 Y91.07
G0 X174.43 Y114.43
G0 X177.525 Y117.525
;TIME_ELAPSED:4817.044732
;LAYER:16
;TYPE:SKIN
;MESH:Box.STL
G1 F60 X142.475 Y117.525 E305.89551
G1 X142.475 Y82.475 E366.33226
G1 X177.525 Y82.475 E426.76901
G1 X177.525 Y117.525 E487.20576
G0 F7200 X174.43 Y114.43
G0 X168.93 Y91.07
G0 X174.774 Y89.214
G1 F60 X170.784 Y85.224 E496.9355
G0 F7200 X168.93 Y91.07
G0 X163.006 Y85.224
G1 F60 X174.774 Y96.992 E525.63212
G0 F7200 X168.9 Y96.992
G0 X174.774 Y104.77
G1 F60 X155.228 Y85.224 E573.29562
G0 F7200 X155.228 Y91.1
G0 X147.45 Y85.224
G1 F60 X174.774 Y112.548 E639.92601
G0 F7200 X168.93 Y108.93
G0 X169.221 Y114.774
G1 F60 X145.224 Y90.776 E698.44463
G0 F7200 X151.07 Y91.07
G0 X145.224 Y98.555
G1 F60 X161.443 Y114.774 E737.99515
G0 F7200 X161.443 Y108.9
G0 X153.665 Y114.774
G1 F60 X145.224 Y106.333 E758.57878
G1 X144.252 Y105.361
;MESH:NONMESH
G0 F600 X144.252 Y105.361 Z36
G0 F7200 X151.1 Y105.361
