;FLAVOR:Marlin
;TIME:2867
;Filament used: 5.34182m
;Layer height: 2
;MINX:121.7
;MINY:86.7
;MINZ:27
;MAXX:148.3
;MAXY:113.3
;MAXZ:57
;TARGET_MACHINE.NAME:Unknown
;Generated with Cura_SteamEngine 5.5.0
M104 S240
M105
M109 S240
M82 ;absolute extrusion mode
;Prime the extruder
G92 E0
G92 E0
G92 E0
G92 E0
;LAYER_COUNT:16
;LAYER:0
M107
;MESH:Box.STL
G0 F3600 X148.3 Y113.3 Z27
;TYPE:SKIN
G1 F60 X121.7 Y113.3 E50.03608
G1 X121.7 Y86.7 E100.07216
G1 X148.3 Y86.7 E150.10824
G1 X148.3 Y113.3 E200.14432
G0 F3600 X144.93 Y109.93
G0 X138.93 Y96.07
G0 X145.299 Y94.388
G1 F60 X140.611 Y89.7 E212.61541
G0 F3600 X138.93 Y96.07
G0 X132.126 Y89.7
G1 F60 X145.299 Y102.873 E247.65841
G0 F3600 X138.9 Y102.873
G0 X144.241 Y110.3
G1 F60 X124.698 Y90.757 E299.64698
G0 F3600 X131.07 Y96.07
G0 X124.698 Y99.243
G1 F60 X135.756 Y110.3 E329.0623
G0 F3600 X135.756 Y103.9
G0 X127.27 Y110.3
G1 F60 X124.698 Y107.728 E335.90437
;MESH:NONMESH
G0 F600 X124.698 Y107.728 Z29
G0 F3600 X131.07 Y103.93
G0 X144.93 Y109.93
G0 X148.3 Y113.3
;TIME_ELAPSED:184.076299
;LAYER:1
M106 S255
;TYPE:SKIN
;MESH:Box.STL
G1 F60 X121.7 Y113.3 E385.94045
G1 X121.7 Y86.7 E435.97653
G1 X148.3 Y86.7 E486.01261
G1 X148.3 Y113.3 E536.0487
G0 F5400 X144.93 Y109.93
G0 X145.299 Y109.259
G1 F60 X144.258 Y110.3 E538.81798
G0 F5400 X138.93 Y103.93
G0 X135.772 Y110.3
G1 F60 X145.299 Y100.774 E564.16051
G0 F5400 X138.9 Y100.774
G0 X145.299 Y92.288
G1 F60 X127.287 Y110.3 E612.07629
G0 F5400 X131.07 Y103.93
G0 X124.699 Y104.402
G1 F60 X139.402 Y89.7 E651.1881
G0 F5400 X138.93 Y96.07
G0 X130.917 Y89.7
G1 F60 X124.699 Y95.917 E667.72798
;MESH:NONMESH
G0 F600 X124.699 Y95.917 Z31
G0 F5400 X131.07 Y96.07
G0 X144.93 Y109.93
G0 X148.3 Y113.3
;TIME_ELAPSED:362.071722
;LAYER:2
;TYPE:SKIN
;MESH:Box.STL
G1 F60 X121.7 Y113.3 E717.76406
G1 X121.7 Y86.7 E767.80014
G1 X148.3 Y86.7 E817.83622
G1 X148.3 Y113.3 E867.8723
G0 F7200 X144.93 Y109.93
G0 X138.93 Y96.07
G0 X145.299 Y94.388
G1 F60 X140.611 Y89.7 E880.34339
G0 F7200 X138.93 Y96.07
G0 X132.126 Y89.7
G1 F60 X145.299 Y102.873 E915.38639
G0 F7200 X138.9 Y102.873
G0 X144.241 Y110.3
G1 F60 X124.698 Y90.757 E967.37496
G0 F7200 X131.07 Y96.07
G0 X124.698 Y99.243
G1 F60 X135.756 Y110.3 E996.79028
G0 F7200 X135.756 Y103.9
G0 X127.27 Y110.3
G1 F60 X124.698 Y107.728 E1003.63235
;MESH:NONMESH
G0 F600 X124.698 Y107.728 Z33
G0 F7200 X131.07 Y103.93
G0 X144.93 Y109.93
G0 X148.3 Y113.3
;TIME_ELAPSED:542.222171
;LAYER:3
;TYPE:SKIN
;MESH:Box.STL
G1 F60 X121.7 Y113.3 E1053.66843
G1 X121.7 Y86.7 E1103.70451
G1 X148.3 Y86.7 E1153.74059
G1 X148.3 Y113.3 E1203.77667
G0 F7200 X144.93 Y109.93
G0 X145.299 Y109.259
G1 F60 X144.258 Y110.3 E1206.54596
G0 F7200 X138.93 Y103.93
G0 X135.772 Y110.3
G1 F60 X145.299 Y100.774 E1231.88849
G0 F7200 X138.9 Y100.774
G0 X145.299 Y92.288
G1 F60 X127.287 Y110.3 E1279.80427
G0 F7200 X131.07 Y103.93
G0 X124.699 Y104.402
G1 F60 X139.402 Y89.7 E1318.91607
G0 F7200 X138.93 Y96.07
G0 X130.917 Y89.7
G1 F60 X124.699 Y95.917 E1335.45596
;MESH:NONMESH
G0 F600 X124.699 Y95.917 Z35
G0 F7200 X131.07 Y96.07
G0 X144.93 Y109.93
G0 X148.3 Y113.3
;TIME_ELAPSED:720.018754
;LAYER:4
;TYPE:SKIN
;MESH:Box.STL
G1 F60 X121.7 Y113.3 E1385.49204
G1 X121.7 Y86.7 E1435.52812
G1 X148.3 Y86.7 E1485.5642
G1 X148.3 Y113.3 E1535.60028
G0 F7200 X144.93 Y109.93
G0 X138.93 Y96.07
G0 X145.299 Y94.388
G1 F60 X140.611 Y89.7 E1548.07136
G0 F7200 X138.93 Y96.07
G0 X132.126 Y89.7
G1 F60 X145.299 Y102.873 E1583.11437
G0 F7200 X138.9 Y102.873
G0 X144.241 Y110.3
G92 E0
G1 F60 X124.698 Y90.757 E51.98857
G0 F7200 X131.07 Y96.07
G0 X124.698 Y99.243
G1 F60 X135.756 Y110.3 E81.40389
G0 F7200 X135.756 Y103.9
G0 X127.27 Y110.3
G1 F60 X124.698 Y107.728 E88.24596
;MESH:NONMESH
G0 F600 X124.698 Y107.728 Z37
G0 F7200 X131.07 Y103.93
G0 X144.93 Y109.93
G0 X148.3 Y113.3
;TIME_ELAPSED:900.169176
;LAYER:5
;TYPE:SKIN
;MESH:Box.STL
G1 F60 X121.7 Y113.3 E138.28204
G1 X121.7 Y86.7 E188.31812
G1 X148.3 Y86.7 E238.3542
G1 X148.3 Y113.3 E288.39028
G0 F7200 X144.93 Y109.93
G0 X145.299 Y109.259
G1 F60 X144.258 Y110.3 E291.15957
G0 F7200 X138.93 Y103.93
G0 X135.772 Y110.3
G1 F60 X145.299 Y100.774 E316.5021
G0 F7200 X138.9 Y100.774
G0 X145.299 Y92.288
G1 F60 X127.287 Y110.3 E364.41788
G0 F7200 X131.07 Y103.93
G0 X124.699 Y104.402
G1 F60 X139.402 Y89.7 E403.52968
G0 F7200 X138.93 Y96.07
G0 X130.917 Y89.7
G1 F60 X124.699 Y95.917 E420.06957
;MESH:NONMESH
G0 F600 X124.699 Y95.917 Z39
G0 F7200 X131.07 Y96.07
G0 X144.93 Y109.93
G0 X148.3 Y113.3
;TIME_ELAPSED:1077.965759
;LAYER:6
;TYPE:SKIN
;MESH:Box.STL
G1 F60 X121.7 Y113.3 E470.10565
G1 X121.7 Y86.7 E520.14173
G1 X148.3 Y86.7 E570.17781
G1 X148.3 Y113.3 E620.21389
G0 F7200 X144.93 Y109.93
G0 X138.93 Y96.07
G0 X145.299 Y94.388
G1 F60 X140.611 Y89.7 E632.68497
G0 F7200 X138.93 Y96.07
G0 X132.126 Y89.7
G1 F60 X145.299 Y102.873 E667.72798
G0 F7200 X138.9 Y102.873
G0 X144.241 Y110.3
G1 F60 X124.698 Y90.757 E719.71655
G0 F7200 X131.07 Y96.07
G0 X124.698 Y99.243
G1 F60 X135.756 Y110.3 E749.13187
G0 F7200 X135.756 Y103.9
G0 X127.27 Y110.3
G1 F60 X124.698 Y107.728 E755.97394
;MESH:NONMESH
G0 F600 X124.698 Y107.728 Z41
G0 F7200 X131.07 Y103.93
G0 X144.93 Y109.93
G0 X148.3 Y113.3
;TIME_ELAPSED:1258.116208
;LAYER:7
;TYPE:SKIN
;MESH:Box.STL
G1 F60 X121.7 Y113.3 E806.01002
G1 X121.7 Y86.7 E856.0461
G1 X148.3 Y86.7 E906.08218
G1 X148.3 Y113.3 E956.11826
G0 F7200 X144.93 Y109.93
G0 X145.299 Y109.259
G1 F60 X144.258 Y110.3 E958.88755
G0 F7200 X138.93 Y103.93
G0 X135.772 Y110.3
G1 F60 X145.299 Y100.774 E984.23008
G0 F7200 X138.9 Y100.774
G0 X145.299 Y92.288
G1 F60 X127.287 Y110.3 E1032.14586
G0 F7200 X131.07 Y103.93
G0 X124.699 Y104.402
G1 F60 X139.402 Y89.7 E1071.25766
G0 F7200 X138.93 Y96.07
G0 X130.917 Y89.7
G1 F60 X124.699 Y95.917 E1087.79755
;MESH:NONMESH
G0 F600 X124.699 Y95.917 Z43
G0 F7200 X131.07 Y96.07
G0 X144.93 Y109.93
G0 X148.3 Y113.3
;TIME_ELAPSED:1435.912791
;LAYER:8
;TYPE:SKIN
;MESH:Box.STL
G1 F60 X121.7 Y113.3 E1137.83363
G1 X121.7 Y86.7 E1187.86971
G1 X148.3 Y86.7 E1237.90579
G1 X148.3 Y113.3 E1287.94187
G0 F7200 X144.93 Y109.93
G0 X138.93 Y96.07
G0 X145.299 Y94.388
G1 F60 X140.611 Y89.7 E1300.41295
G0 F7200 X138.93 Y96.07
G0 X132.126 Y89.7
G1 F60 X145.299 Y102.873 E1335.45596
G0 F7200 X138.9 Y102.873
G0 X144.241 Y110.3
G1 F60 X124.698 Y90.757 E1387.44453
G0 F7200 X131.07 Y96.07
G0 X124.698 Y99.243
G1 F60 X135.756 Y110.3 E1416.85985
G0 F7200 X135.756 Y103.9
G0 X127.27 Y110.3
G1 F60 X124.698 Y107.728 E1423.70192
;MESH:NONMESH
G0 F600 X124.698 Y107.728 Z45
G0 F7200 X131.07 Y103.93
G0 X144.93 Y109.93
G0 X148.3 Y113.3
;TIME_ELAPSED:1616.063240
;LAYER:9
;TYPE:SKIN
;MESH:Box.STL
G1 F60 X121.7 Y113.3 E1473.738
G1 X121.7 Y86.7 E1523.77408
G1 X148.3 Y86.7 E1573.81016
G92 E0
G1 X148.3 Y113.3 E50.03608
G0 F7200 X144.93 Y109.93
G0 X145.299 Y109.259
G1 F60 X144.258 Y110.3 E52.80536
G0 F7200 X138.93 Y103.93
G0 X135.772 Y110.3
G1 F60 X145.299 Y100.774 E78.1479
G0 F7200 X138.9 Y100.774
G0 X145.299 Y92.288
G1 F60 X127.287 Y110.3 E126.06368
G0 F7200 X131.07 Y103.93
G0 X124.699 Y104.402
G1 F60 X139.402 Y89.7 E165.17548
G0 F7200 X138.93 Y96.07
G0 X130.917 Y89.7
G1 F60 X124.699 Y95.917 E181.71536
;MESH:NONMESH
G0 F600 X124.699 Y95.917 Z47
G0 F7200 X131.07 Y96.07
G0 X144.93 Y109.93
G0 X148.3 Y113.3
;TIME_ELAPSED:1793.859969
;LAYER:10
;TYPE:SKIN
;MESH:Box.STL
G1 F60 X121.7 Y113.3 E231.75144
G1 X121.7 Y86.7 E281.78752
G1 X148.3 Y86.7 E331.8236
G1 X148.3 Y113.3 E381.85969
G0 F7200 X144.93 Y109.93
G0 X138.93 Y96.07
G0 X145.299 Y94.388
G1 F60 X140.611 Y89.7 E394.33077
G0 F7200 X138.93 Y96.07
G0 X132.126 Y89.7
G1 F60 X145.299 Y102.873 E429.37378
G0 F7200 X138.9 Y102.873
G0 X144.241 Y110.3
G1 F60 X124.698 Y90.757 E481.36235
G0 F7200 X131.07 Y96.07
G0 X124.698 Y99.243
G1 F60 X135.756 Y110.3 E510.77767
G0 F7200 X135.756 Y103.9
G0 X127.27 Y110.3
G1 F60 X124.698 Y107.728 E517.61974
;MESH:NONMESH
G0 F600 X124.698 Y107.728 Z49
G0 F7200 X131.07 Y103.93
G0 X144.93 Y109.93
G0 X148.3 Y113.3
;TIME_ELAPSED:1974.010419
;LAYER:11
;TYPE:SKIN
;MESH:Box.STL
G1 F60 X121.7 Y113.3 E567.65582
G1 X121.7 Y86.7 E617.6919
G1 X148.3 Y86.7 E667.72798
G1 X148.3 Y113.3 E717.76406
G0 F7200 X144.93 Y109.93
G0 X145.299 Y109.259
G1 F60 X144.258 Y110.3 E720.53334
G0 F7200 X138.93 Y103.93
G0 X135.772 Y110.3
G1 F60 X145.299 Y100.774 E745.87588
G0 F7200 X138.9 Y100.774
G0 X145.299 Y92.288
G1 F60 X127.287 Y110.3 E793.79166
G0 F7200 X131.07 Y103.93
G0 X124.699 Y104.402
G1 F60 X139.402 Y89.7 E832.90346
G0 F7200 X138.93 Y96.07
G0 X130.917 Y89.7
G1 F60 X124.699 Y95.917 E849.44334
;MESH:NONMESH
G0 F600 X124.699 Y95.917 Z51
G0 F7200 X131.07 Y96.07
G0 X144.93 Y109.93
G0 X148.3 Y113.3
;TIME_ELAPSED:2151.807001
;LAYER:12
;TYPE:SKIN
;MESH:Box.STL
G1 F60 X121.7 Y113.3 E899.47942
G1 X121.7 Y86.7 E949.5155
G1 X148.3 Y86.7 E999.55158
G1 X148.3 Y113.3 E1049.58766
G0 F7200 X144.93 Y109.93
G0 X138.93 Y96.07
G0 X145.299 Y94.388
G1 F60 X140.611 Y89.7 E1062.05875
G0 F7200 X138.93 Y96.07
G0 X132.126 Y89.7
G1 F60 X145.299 Y102.873 E1097.10175
G0 F7200 X138.9 Y102.873
G0 X144.241 Y110.3
G1 F60 X124.698 Y90.757 E1149.09032
G0 F7200 X131.07 Y96.07
G0 X124.698 Y99.243
G1 F60 X135.756 Y110.3 E1178.50565
G0 F7200 X135.756 Y103.9
G0 X127.27 Y110.3
G1 F60 X124.698 Y107.728 E1185.34772
;MESH:NONMESH
G0 F600 X124.698 Y107.728 Z53
G0 F7200 X131.07 Y103.93
G0 X144.93 Y109.93
G0 X148.3 Y113.3
;TIME_ELAPSED:2331.957451
;LAYER:13
;TYPE:SKIN
;MESH:Box.STL
G1 F60 X121.7 Y113.3 E1235.3838
G1 X121.7 Y86.7 E1285.41988
G1 X148.3 Y86.7 E1335.45596
G1 X148.3 Y113.3 E1385.49204
G0 F7200 X144.93 Y109.93
G0 X145.299 Y109.259
G1 F60 X144.258 Y110.3 E1388.26132
G0 F7200 X138.93 Y103.93
G0 X135.772 Y110.3
G1 F60 X145.299 Y100.774 E1413.60385
G0 F7200 X138.9 Y100.774
G0 X145.299 Y92.288
G1 F60 X127.287 Y110.3 E1461.51964
G0 F7200 X131.07 Y103.93
G0 X124.699 Y104.402
G1 F60 X139.402 Y89.7 E1500.63144
G0 F7200 X138.93 Y96.07
G0 X130.917 Y89.7
G1 F60 X124.699 Y95.917 E1517.17132
;MESH:NONMESH
G0 F600 X124.699 Y95.917 Z55
G0 F7200 X131.07 Y96.07
G0 X144.93 Y109.93
G0 X148.3 Y113.3
;TIME_ELAPSED:2509.754034
;LAYER:14
;TYPE:SKIN
;MESH:Box.STL
G1 F60 X121.7 Y113.3 E1567.2074
G1 X121.7 Y86.7 E1617.24348
G92 E0
G1 X148.3 Y86.7 E50.03608
G1 X148.3 Y113.3 E100.07216
G0 F7200 X144.93 Y109.93
G0 X138.93 Y96.07
G0 X145.299 Y94.388
G1 F60 X140.611 Y89.7 E112.54325
G0 F7200 X138.93 Y96.07
G0 X132.126 Y89.7
G1 F60 X145.299 Y102.873 E147.58625
G0 F7200 X138.9 Y102.873
G0 X144.241 Y110.3
G1 F60 X124.698 Y90.757 E199.57482
G0 F7200 X131.07 Y96.07
G0 X124.698 Y99.243
G1 F60 X135.756 Y110.3 E228.99014
G0 F7200 X135.756 Y103.9
G0 X127.27 Y110.3
G1 F60 X124.698 Y107.728 E235.83221
;MESH:NONMESH
G0 F600 X124.698 Y107.728 Z57
G0 F7200 X131.07 Y103.93
G0 X144.93 Y109.93
G0 X148.3 Y113.3
;TIME_ELAPSED:2689.904778
;LAYER:15
;TYPE:SKIN
;MESH:Box.STL
G1 F60 X121.7 Y113.3 E285.86829
G1 X121.7 Y86.7 E335.90437
G1 X148.3 Y86.7 E385.94045
G1 X148.3 Y113.3 E435.97653
G0 F7200 X144.93 Y109.93
G0 X145.299 Y109.259
G1 F60 X144.258 Y110.3 E438.74582
G0 F7200 X138.93 Y103.93
G0 X135.772 Y110.3
G1 F60 X145.299 Y100.774 E464.08835
G0 F7200 X138.9 Y100.774
G0 X145.299 Y92.288
G1 F60 X127.287 Y110.3 E512.00413
G0 F7200 X131.07 Y103.93
G0 X124.699 Y104.402
G1 F60 X139.402 Y89.7 E551.11593
G0 F7200 X138.93 Y96.07
G0 X130.917 Y89.7
G1 F60 X124.699 Y95.917 E567.65582
;TIME_ELAPSED:2867.138800
M107
M104 S0
M140 S0
;Retract the filament
G92 E1
G1 E-1 F300
G28 X0 Y0
M84
M82 ;absolute extrusion mode
M104 S0
;End of Gcode
;SETTING_3 {"global_quality": "[general]\\nversion = 4\\nname = Fine #2\\ndefini
;SETTING_3 tion = custom\\n\\n[metadata]\\ntype = quality_changes\\nquality_type
;SETTING_3  = normal\\nsetting_version = 22\\n\\n[values]\\nadhesion_type = none
;SETTING_3 \\nlayer_height = 2\\nlayer_height_0 = 2\\n\\n", "extruder_quality": 
;SETTING_3 ["[general]\\nversion = 4\\nname = Fine #2\\ndefinition = custom\\n\\
;SETTING_3 n[metadata]\\ntype = quality_changes\\nquality_type = normal\\nintent
;SETTING_3 _category = default\\nposition = 0\\nsetting_version = 22\\n\\n[value
;SETTING_3 s]\\ninfill_sparse_density = 100.0\\nretraction_enable = False\\nspee
;SETTING_3 d_print = 2\\ntop_bottom_thickness = 1\\nwall_line_count = 0\\nwall_t
;SETTING_3 hickness = =wall_line_width_0 if magic_spiralize else 0.8\\nxy_offset
;SETTING_3  = 0\\n\\n"]}
