;FLAVOR:Marlin
;TIME:15286
;Filament used: 27.3251m
;Layer height: 1.4
;MINX:87.8
;MINY:87.8
;MINZ:1.4
;MAXX:182.2
;MAXY:112.2
;MAXZ:40.6
;TARGET_MACHINE.NAME:Unknown
;Generated with Cura_SteamEngine 5.5.0
M104 S240
M105
M109 S240
M82 ;absolute extrusion mode
G28 ;Home
G1 Z15.0 F6000 ;Move the platform down 15mm
;Prime the extruder
G92 E0
G1 F200 E3
G92 E0
G92 E0
G92 E0
;LAYER_COUNT:29
;LAYER:0
M107
;MESH:Box.STL
G0 F600 X89.657 Y88.599 Z1.4
;TYPE:FILL
G1 F60 X112.457 Y111.399 E39.62655
G0 F600 X106.8 Y111.399
G1 F60 X88.599 Y93.198 E71.26001
G0 F600 X88.599 Y98.855
G1 F60 X101.143 Y111.399 E93.06157
G0 F600 X95.486 Y111.399
G1 F60 X88.599 Y104.512 E105.03122
G0 F600 X88.599 Y110.169
G1 F60 X89.83 Y111.399 E107.16984
G0 F600 X95.314 Y88.599
G1 F60 X118.114 Y111.399 E146.7964
G0 F600 X123.771 Y111.399
G1 F60 X100.971 Y88.599 E186.42295
G0 F600 X106.628 Y88.599
G1 F60 X129.428 Y111.399 E226.0495
G0 F600 X135.084 Y111.399
G1 F60 X112.285 Y88.599 E265.67519
G0 F600 X117.941 Y88.599
G1 F60 X140.741 Y111.399 E305.30174
G0 F600 X146.398 Y111.399
G1 F60 X123.598 Y88.599 E344.9283
G0 F600 X129.255 Y88.599
G1 F60 X152.055 Y111.399 E384.55485
G0 F600 X157.712 Y111.399
G1 F60 X134.912 Y88.599 E424.1814
G0 F600 X140.569 Y88.599
G1 F60 X163.369 Y111.399 E463.80796
G0 F600 X169.026 Y111.399
G1 F60 X146.226 Y88.599 E503.43451
G0 F600 X151.883 Y88.599
G1 F60 X174.682 Y111.399 E543.0602
G0 F600 X180.339 Y111.399
G1 F60 X157.539 Y88.599 E582.68675
G0 F600 X163.196 Y88.599
G1 F60 X181.399 Y106.802 E614.32369
G0 F600 X181.399 Y101.145
G1 F60 X168.853 Y88.599 E636.12872
G0 F600 X174.51 Y88.599
G1 F60 X181.399 Y95.488 E648.10185
G0 F600 X181.399 Y89.831
G1 F60 X180.167 Y88.599 E650.24307
G0 F600 X182.2 Y112.2
;TYPE:WALL-OUTER
G1 F60 X87.8 Y112.2 E766.25655
G1 X87.8 Y87.8 E796.24309
G1 X182.2 Y87.8 E912.25657
G1 X182.2 Y112.2 E942.2431
G0 F600 X182.2 Y109.2
;MESH:NONMESH
G0 X182.2 Y109.2 Z2.8
G0 X88.599 Y89.831
;TIME_ELAPSED:804.908096
;LAYER:1
M106 S255
;TYPE:FILL
;MESH:Box.STL
G1 F90 X89.831 Y88.599 E944.38433
G0 F900 X95.488 Y88.599
G1 F90 X88.599 Y95.488 E956.35746
G0 F900 X88.599 Y101.145
G1 F90 X101.145 Y88.599 E978.16249
G0 F900 X106.802 Y88.599
G1 F90 X88.599 Y106.802 E1009.79943
G0 F900 X89.659 Y111.399
G1 F90 X112.458 Y88.599 E1049.42511
G0 F900 X118.115 Y88.599
G1 F90 X95.315 Y111.399 E1089.05167
G0 F900 X100.972 Y111.399
G1 F90 X123.772 Y88.599 E1128.67822
G0 F900 X129.429 Y88.599
G1 F90 X106.629 Y111.399 E1168.30477
G0 F900 X112.286 Y111.399
G1 F90 X135.086 Y88.599 E1207.93133
G0 F900 X140.743 Y88.599
G1 F90 X117.943 Y111.399 E1247.55788
G0 F900 X123.6 Y111.399
G1 F90 X146.4 Y88.599 E1287.18444
G0 F900 X152.056 Y88.599
G1 F90 X129.256 Y111.399 E1326.81099
G0 F900 X134.913 Y111.399
G1 F90 X157.713 Y88.599 E1366.43754
G0 F900 X163.37 Y88.599
G1 F90 X140.57 Y111.399 E1406.0641
G0 F900 X146.227 Y111.399
G1 F90 X169.027 Y88.599 E1445.69065
G0 F900 X174.684 Y88.599
G1 F90 X151.884 Y111.399 E1485.3172
G0 F900 X157.541 Y111.399
G1 F90 X180.341 Y88.599 E1524.94376
G0 F900 X181.399 Y93.198
G1 F90 X163.198 Y111.399 E1556.57722
G0 F900 X168.854 Y111.399
G1 F90 X181.399 Y98.855 E1578.37965
G0 F900 X181.399 Y104.512
G92 E0
G1 F90 X174.511 Y111.399 E11.97052
G0 F900 X180.168 Y111.399
G1 F90 X181.399 Y110.169 E14.10914
G0 F900 X182.2 Y112.2
;TYPE:WALL-OUTER
G1 F60 X87.8 Y112.2 E130.12262
G1 X87.8 Y87.8 E160.10915
G1 X182.2 Y87.8 E276.12263
G1 X182.2 Y112.2 E306.10917
G0 F900 X182.2 Y109.2
;MESH:NONMESH
G0 F600 X182.2 Y109.2 Z4.2
G0 F900 X89.657 Y88.599
;TIME_ELAPSED:1409.629490
;LAYER:2
;TYPE:FILL
;MESH:Box.STL
G1 F120 X112.457 Y111.399 E345.73572
G0 F1200 X106.8 Y111.399
G1 F120 X88.599 Y93.198 E377.36918
G0 F1200 X88.599 Y98.855
G1 F120 X101.143 Y111.399 E399.17074
G0 F1200 X95.486 Y111.399
G1 F120 X88.599 Y104.512 E411.14039
G0 F1200 X88.599 Y110.169
G1 F120 X89.83 Y111.399 E413.27901
G0 F1200 X95.314 Y88.599
G1 F120 X118.114 Y111.399 E452.90557
G0 F1200 X123.771 Y111.399
G1 F120 X100.971 Y88.599 E492.53212
G0 F1200 X106.628 Y88.599
G1 F120 X129.428 Y111.399 E532.15867
G0 F1200 X135.084 Y111.399
G1 F120 X112.285 Y88.599 E571.78436
G0 F1200 X117.941 Y88.599
G1 F120 X140.741 Y111.399 E611.41091
G0 F1200 X146.398 Y111.399
G1 F120 X123.598 Y88.599 E651.03747
G0 F1200 X129.255 Y88.599
G1 F120 X152.055 Y111.399 E690.66402
G0 F1200 X157.712 Y111.399
G1 F120 X134.912 Y88.599 E730.29057
G0 F1200 X140.569 Y88.599
G1 F120 X163.369 Y111.399 E769.91713
G0 F1200 X169.026 Y111.399
G1 F120 X146.226 Y88.599 E809.54368
G0 F1200 X151.883 Y88.599
G1 F120 X174.682 Y111.399 E849.16937
G0 F1200 X180.339 Y111.399
G1 F120 X157.539 Y88.599 E888.79592
G0 F1200 X163.196 Y88.599
G1 F120 X181.399 Y106.802 E920.43286
G0 F1200 X181.399 Y101.145
G1 F120 X168.853 Y88.599 E942.23789
G0 F1200 X174.51 Y88.599
G1 F120 X181.399 Y95.488 E954.21102
G0 F1200 X181.399 Y89.831
G1 F120 X180.167 Y88.599 E956.35224
G0 F1200 X182.2 Y112.2
;TYPE:WALL-OUTER
G1 F60 X87.8 Y112.2 E1072.36572
G1 X87.8 Y87.8 E1102.35226
G1 X182.2 Y87.8 E1218.36574
G1 X182.2 Y112.2 E1248.35227
G0 F1200 X182.2 Y109.2
;MESH:NONMESH
G0 F600 X182.2 Y109.2 Z5.6
G0 F1200 X88.599 Y89.831
;TIME_ELAPSED:1924.763959
;LAYER:3
;TYPE:FILL
;MESH:Box.STL
G1 F120 X89.831 Y88.599 E1250.4935
G0 F1200 X95.488 Y88.599
G1 F120 X88.599 Y95.488 E1262.46663
G0 F1200 X88.599 Y101.145
G1 F120 X101.145 Y88.599 E1284.27166
G0 F1200 X106.802 Y88.599
G1 F120 X88.599 Y106.802 E1315.9086
G0 F1200 X89.659 Y111.399
G1 F120 X112.458 Y88.599 E1355.53428
G0 F1200 X118.115 Y88.599
G1 F120 X95.315 Y111.399 E1395.16084
G0 F1200 X100.972 Y111.399
G1 F120 X123.772 Y88.599 E1434.78739
G0 F1200 X129.429 Y88.599
G1 F120 X106.629 Y111.399 E1474.41394
G0 F1200 X112.286 Y111.399
G1 F120 X135.086 Y88.599 E1514.0405
G0 F1200 X140.743 Y88.599
G1 F120 X117.943 Y111.399 E1553.66705
G0 F1200 X123.6 Y111.399
G1 F120 X146.4 Y88.599 E1593.29361
G0 F1200 X152.056 Y88.599
G92 E0
G1 F120 X129.256 Y111.399 E39.62655
G0 F1200 X134.913 Y111.399
G1 F120 X157.713 Y88.599 E79.25311
G0 F1200 X163.37 Y88.599
G1 F120 X140.57 Y111.399 E118.87966
G0 F1200 X146.227 Y111.399
G1 F120 X169.027 Y88.599 E158.50622
G0 F1200 X174.684 Y88.599
G1 F120 X151.884 Y111.399 E198.13277
G0 F1200 X157.541 Y111.399
G1 F120 X180.341 Y88.599 E237.75932
G0 F1200 X181.399 Y93.198
G1 F120 X163.198 Y111.399 E269.39278
G0 F1200 X168.854 Y111.399
G1 F120 X181.399 Y98.855 E291.19521
G0 F1200 X181.399 Y104.512
G1 F120 X174.511 Y111.399 E303.16573
G0 F1200 X180.168 Y111.399
G1 F120 X181.399 Y110.169 E305.30435
G0 F1200 X182.2 Y112.2
;TYPE:WALL-OUTER
G1 F60 X87.8 Y112.2 E421.31783
G1 X87.8 Y87.8 E451.30436
G1 X182.2 Y87.8 E567.31785
G1 X182.2 Y112.2 E597.30438
G0 F1200 X182.2 Y109.2
;MESH:NONMESH
G0 F600 X182.2 Y109.2 Z7
G0 F1200 X89.657 Y88.599
;TIME_ELAPSED:2437.802773
;LAYER:4
;TYPE:FILL
;MESH:Box.STL
G1 F120 X112.457 Y111.399 E636.93093
G0 F1200 X106.8 Y111.399
G1 F120 X88.599 Y93.198 E668.5644
G0 F1200 X88.599 Y98.855
G1 F120 X101.143 Y111.399 E690.36595
G0 F1200 X95.486 Y111.399
G1 F120 X88.599 Y104.512 E702.3356
G0 F1200 X88.599 Y110.169
G1 F120 X89.83 Y111.399 E704.47422
G0 F1200 X95.314 Y88.599
G1 F120 X118.114 Y111.399 E744.10078
G0 F1200 X123.771 Y111.399
G1 F120 X100.971 Y88.599 E783.72733
G0 F1200 X106.628 Y88.599
G1 F120 X129.428 Y111.399 E823.35388
G0 F1200 X135.084 Y111.399
G1 F120 X112.285 Y88.599 E862.97957
G0 F1200 X117.941 Y88.599
G1 F120 X140.741 Y111.399 E902.60612
G0 F1200 X146.398 Y111.399
G1 F120 X123.598 Y88.599 E942.23268
G0 F1200 X129.255 Y88.599
G1 F120 X152.055 Y111.399 E981.85923
G0 F1200 X157.712 Y111.399
G1 F120 X134.912 Y88.599 E1021.48578
G0 F1200 X140.569 Y88.599
G1 F120 X163.369 Y111.399 E1061.11234
G0 F1200 X169.026 Y111.399
G1 F120 X146.226 Y88.599 E1100.73889
G0 F1200 X151.883 Y88.599
G1 F120 X174.682 Y111.399 E1140.36458
G0 F1200 X180.339 Y111.399
G1 F120 X157.539 Y88.599 E1179.99113
G0 F1200 X163.196 Y88.599
G1 F120 X181.399 Y106.802 E1211.62807
G0 F1200 X181.399 Y101.145
G1 F120 X168.853 Y88.599 E1233.4331
G0 F1200 X174.51 Y88.599
G1 F120 X181.399 Y95.488 E1245.40623
G0 F1200 X181.399 Y89.831
G1 F120 X180.167 Y88.599 E1247.54745
G0 F1200 X182.2 Y112.2
;TYPE:WALL-OUTER
G1 F60 X87.8 Y112.2 E1363.56093
G1 X87.8 Y87.8 E1393.54747
G1 X182.2 Y87.8 E1509.56095
G1 X182.2 Y112.2 E1539.54748
G0 F1200 X182.2 Y109.2
;MESH:NONMESH
G0 F600 X182.2 Y109.2 Z8.4
G0 F1200 X88.599 Y89.831
;TIME_ELAPSED:2952.937242
;LAYER:5
;TYPE:FILL
;MESH:Box.STL
G1 F120 X89.831 Y88.599 E1541.68871
G0 F1200 X95.488 Y88.599
G1 F120 X88.599 Y95.488 E1553.66184
G0 F1200 X88.599 Y101.145
G1 F120 X101.145 Y88.599 E1575.46687
G0 F1200 X106.802 Y88.599
G92 E0
G1 F120 X88.599 Y106.802 E31.63694
G0 F1200 X89.659 Y111.399
G1 F120 X112.458 Y88.599 E71.26262
G0 F1200 X118.115 Y88.599
G1 F120 X95.315 Y111.399 E110.88918
G0 F1200 X100.972 Y111.399
G1 F120 X123.772 Y88.599 E150.51573
G0 F1200 X129.429 Y88.599
G1 F120 X106.629 Y111.399 E190.14228
G0 F1200 X112.286 Y111.399
G1 F120 X135.086 Y88.599 E229.76884
G0 F1200 X140.743 Y88.599
G1 F120 X117.943 Y111.399 E269.39539
G0 F1200 X123.6 Y111.399
G1 F120 X146.4 Y88.599 E309.02195
G0 F1200 X152.056 Y88.599
G1 F120 X129.256 Y111.399 E348.6485
G0 F1200 X134.913 Y111.399
G1 F120 X157.713 Y88.599 E388.27505
G0 F1200 X163.37 Y88.599
G1 F120 X140.57 Y111.399 E427.90161
G0 F1200 X146.227 Y111.399
G1 F120 X169.027 Y88.599 E467.52816
G0 F1200 X174.684 Y88.599
G1 F120 X151.884 Y111.399 E507.15472
G0 F1200 X157.541 Y111.399
G1 F120 X180.341 Y88.599 E546.78127
G0 F1200 X181.399 Y93.198
G1 F120 X163.198 Y111.399 E578.41473
G0 F1200 X168.854 Y111.399
G1 F120 X181.399 Y98.855 E600.21716
G0 F1200 X181.399 Y104.512
G1 F120 X174.511 Y111.399 E612.18768
G0 F1200 X180.168 Y111.399
G1 F120 X181.399 Y110.169 E614.32629
G0 F1200 X182.2 Y112.2
;TYPE:WALL-OUTER
G1 F60 X87.8 Y112.2 E730.33977
G1 X87.8 Y87.8 E760.32631
G1 X182.2 Y87.8 E876.33979
G1 X182.2 Y112.2 E906.32633
G0 F1200 X182.2 Y109.2
;MESH:NONMESH
G0 F600 X182.2 Y109.2 Z9.8
G0 F1200 X89.657 Y88.599
;TIME_ELAPSED:3465.976122
;LAYER:6
;TYPE:FILL
;MESH:Box.STL
G1 F120 X112.457 Y111.399 E945.95288
G0 F1200 X106.8 Y111.399
G1 F120 X88.599 Y93.198 E977.58634
G0 F1200 X88.599 Y98.855
G1 F120 X101.143 Y111.399 E999.3879
G0 F1200 X95.486 Y111.399
G1 F120 X88.599 Y104.512 E1011.35755
G0 F1200 X88.599 Y110.169
G1 F120 X89.83 Y111.399 E1013.49617
G0 F1200 X95.314 Y88.599
G1 F120 X118.114 Y111.399 E1053.12272
G0 F1200 X123.771 Y111.399
G1 F120 X100.971 Y88.599 E1092.74927
G0 F1200 X106.628 Y88.599
G1 F120 X129.428 Y111.399 E1132.37583
G0 F1200 X135.084 Y111.399
G1 F120 X112.285 Y88.599 E1172.00151
G0 F1200 X117.941 Y88.599
G1 F120 X140.741 Y111.399 E1211.62807
G0 F1200 X146.398 Y111.399
G1 F120 X123.598 Y88.599 E1251.25462
G0 F1200 X129.255 Y88.599
G1 F120 X152.055 Y111.399 E1290.88118
G0 F1200 X157.712 Y111.399
G1 F120 X134.912 Y88.599 E1330.50773
G0 F1200 X140.569 Y88.599
G1 F120 X163.369 Y111.399 E1370.13428
G0 F1200 X169.026 Y111.399
G1 F120 X146.226 Y88.599 E1409.76084
G0 F1200 X151.883 Y88.599
G1 F120 X174.682 Y111.399 E1449.38652
G0 F1200 X180.339 Y111.399
G1 F120 X157.539 Y88.599 E1489.01308
G0 F1200 X163.196 Y88.599
G1 F120 X181.399 Y106.802 E1520.65001
G0 F1200 X181.399 Y101.145
G1 F120 X168.853 Y88.599 E1542.45505
G0 F1200 X174.51 Y88.599
G1 F120 X181.399 Y95.488 E1554.42817
G0 F1200 X181.399 Y89.831
G1 F120 X180.167 Y88.599 E1556.5694
G0 F1200 X182.2 Y112.2
;TYPE:WALL-OUTER
G1 F60 X87.8 Y112.2 E1672.58288
G92 E0
G1 X87.8 Y87.8 E29.98654
G1 X182.2 Y87.8 E146.00002
G1 X182.2 Y112.2 E175.98655
G0 F1200 X182.2 Y109.2
;MESH:NONMESH
G0 F600 X182.2 Y109.2 Z11.2
G0 F1200 X88.599 Y89.831
;TIME_ELAPSED:3981.110892
;LAYER:7
;TYPE:FILL
;MESH:Box.STL
G1 F120 X89.831 Y88.599 E178.12778
G0 F1200 X95.488 Y88.599
G1 F120 X88.599 Y95.488 E190.1009
G0 F1200 X88.599 Y101.145
G1 F120 X101.145 Y88.599 E211.90594
G0 F1200 X106.802 Y88.599
G1 F120 X88.599 Y106.802 E243.54287
G0 F1200 X89.659 Y111.399
G1 F120 X112.458 Y88.599 E283.16856
G0 F1200 X118.115 Y88.599
G1 F120 X95.315 Y111.399 E322.79511
G0 F1200 X100.972 Y111.399
G1 F120 X123.772 Y88.599 E362.42167
G0 F1200 X129.429 Y88.599
G1 F120 X106.629 Y111.399 E402.04822
G0 F1200 X112.286 Y111.399
G1 F120 X135.086 Y88.599 E441.67477
G0 F1200 X140.743 Y88.599
G1 F120 X117.943 Y111.399 E481.30133
G0 F1200 X123.6 Y111.399
G1 F120 X146.4 Y88.599 E520.92788
G0 F1200 X152.056 Y88.599
G1 F120 X129.256 Y111.399 E560.55444
G0 F1200 X134.913 Y111.399
G1 F120 X157.713 Y88.599 E600.18099
G0 F1200 X163.37 Y88.599
G1 F120 X140.57 Y111.399 E639.80754
G0 F1200 X146.227 Y111.399
G1 F120 X169.027 Y88.599 E679.4341
G0 F1200 X174.684 Y88.599
G1 F120 X151.884 Y111.399 E719.06065
G0 F1200 X157.541 Y111.399
G1 F120 X180.341 Y88.599 E758.68721
G0 F1200 X181.399 Y93.198
G1 F120 X163.198 Y111.399 E790.32067
G0 F1200 X168.854 Y111.399
G1 F120 X181.399 Y98.855 E812.12309
G0 F1200 X181.399 Y104.512
G1 F120 X174.511 Y111.399 E824.09361
G0 F1200 X180.168 Y111.399
G1 F120 X181.399 Y110.169 E826.23223
G0 F1200 X182.2 Y112.2
;TYPE:WALL-OUTER
G1 F60 X87.8 Y112.2 E942.24571
G1 X87.8 Y87.8 E972.23225
G1 X182.2 Y87.8 E1088.24573
G1 X182.2 Y112.2 E1118.23226
G0 F1200 X182.2 Y109.2
;MESH:NONMESH
G0 F600 X182.2 Y109.2 Z12.6
G0 F1200 X89.657 Y88.599
;TIME_ELAPSED:4494.148953
;LAYER:8
;TYPE:FILL
;MESH:Box.STL
G1 F120 X112.457 Y111.399 E1157.85882
G0 F1200 X106.8 Y111.399
G1 F120 X88.599 Y93.198 E1189.49228
G0 F1200 X88.599 Y98.855
G1 F120 X101.143 Y111.399 E1211.29383
G0 F1200 X95.486 Y111.399
G1 F120 X88.599 Y104.512 E1223.26349
G0 F1200 X88.599 Y110.169
G1 F120 X89.83 Y111.399 E1225.4021
G0 F1200 X95.314 Y88.599
G1 F120 X118.114 Y111.399 E1265.02866
G0 F1200 X123.771 Y111.399
G1 F120 X100.971 Y88.599 E1304.65521
G0 F1200 X106.628 Y88.599
G1 F120 X129.428 Y111.399 E1344.28177
G0 F1200 X135.084 Y111.399
G1 F120 X112.285 Y88.599 E1383.90745
G0 F1200 X117.941 Y88.599
G1 F120 X140.741 Y111.399 E1423.534
G0 F1200 X146.398 Y111.399
G1 F120 X123.598 Y88.599 E1463.16056
G0 F1200 X129.255 Y88.599
G1 F120 X152.055 Y111.399 E1502.78711
G0 F1200 X157.712 Y111.399
G1 F120 X134.912 Y88.599 E1542.41367
G0 F1200 X140.569 Y88.599
G1 F120 X163.369 Y111.399 E1582.04022
G0 F1200 X169.026 Y111.399
G92 E0
G1 F120 X146.226 Y88.599 E39.62655
G0 F1200 X151.883 Y88.599
G1 F120 X174.682 Y111.399 E79.25224
G0 F1200 X180.339 Y111.399
G1 F120 X157.539 Y88.599 E118.87879
G0 F1200 X163.196 Y88.599
G1 F120 X181.399 Y106.802 E150.51573
G0 F1200 X181.399 Y101.145
G1 F120 X168.853 Y88.599 E172.32076
G0 F1200 X174.51 Y88.599
G1 F120 X181.399 Y95.488 E184.29389
G0 F1200 X181.399 Y89.831
G1 F120 X180.167 Y88.599 E186.43512
G0 F1200 X182.2 Y112.2
;TYPE:WALL-OUTER
G1 F60 X87.8 Y112.2 E302.4486
G1 X87.8 Y87.8 E332.43513
G1 X182.2 Y87.8 E448.44861
G1 X182.2 Y112.2 E478.43515
G0 F1200 X182.2 Y109.2
;MESH:NONMESH
G0 F600 X182.2 Y109.2 Z14
G0 F1200 X88.599 Y89.831
;TIME_ELAPSED:5009.284173
;LAYER:9
;TYPE:FILL
;MESH:Box.STL
G1 F120 X89.831 Y88.599 E480.57637
G0 F1200 X95.488 Y88.599
G1 F120 X88.599 Y95.488 E492.5495
G0 F1200 X88.599 Y101.145
G1 F120 X101.145 Y88.599 E514.35453
G0 F1200 X106.802 Y88.599
G1 F120 X88.599 Y106.802 E545.99147
G0 F1200 X89.659 Y111.399
G1 F120 X112.458 Y88.599 E585.61715
G0 F1200 X118.115 Y88.599
G1 F120 X95.315 Y111.399 E625.24371
G0 F1200 X100.972 Y111.399
G1 F120 X123.772 Y88.599 E664.87026
G0 F1200 X129.429 Y88.599
G1 F120 X106.629 Y111.399 E704.49682
G0 F1200 X112.286 Y111.399
G1 F120 X135.086 Y88.599 E744.12337
G0 F1200 X140.743 Y88.599
G1 F120 X117.943 Y111.399 E783.74992
G0 F1200 X123.6 Y111.399
G1 F120 X146.4 Y88.599 E823.37648
G0 F1200 X152.056 Y88.599
G1 F120 X129.256 Y111.399 E863.00303
G0 F1200 X134.913 Y111.399
G1 F120 X157.713 Y88.599 E902.62959
G0 F1200 X163.37 Y88.599
G1 F120 X140.57 Y111.399 E942.25614
G0 F1200 X146.227 Y111.399
G1 F120 X169.027 Y88.599 E981.88269
G0 F1200 X174.684 Y88.599
G1 F120 X151.884 Y111.399 E1021.50925
G0 F1200 X157.541 Y111.399
G1 F120 X180.341 Y88.599 E1061.1358
G0 F1200 X181.399 Y93.198
G1 F120 X163.198 Y111.399 E1092.76926
G0 F1200 X168.854 Y111.399
G1 F120 X181.399 Y98.855 E1114.57169
G0 F1200 X181.399 Y104.512
G1 F120 X174.511 Y111.399 E1126.54221
G0 F1200 X180.168 Y111.399
